!!!!SEGMENT: pl-cz--iii-446--002_maader-ludwik--requiem-in-es-dies-irae.krn
!!!cenid: 17xx:971
!!!COM: Maader, Ludwik
!!!COM-rismid: pe30020328
!!!CDT: <1794->1798
!!!CNT:
!!!OPR: Requiem in Es
!!!OTL: Dies irae
!!!OMV: 002
!!!PDT:
!!!AGN: Sacred; Requiem
!!!SMS-siglum: PL-CZ
!!!SMS-shelfmark: III-446
!!!SMS-shelfwork: 001-002 M
!!!SMS-variant:
!!!SMS-altvar:
!!!NIFC-rismid: 300000767
!!!URL-scan: http://repozytorium.nifc.pl/skany/pl-cz-nut--iii-446
!!!ONB-nifc: UWAGA: części Requiem: Requiem, Dies irae, Domine Jesu Christe, Sanctus, Benedictus
!!!key: E-
**kern	**dynam	**kern	**dynam	**kern	**text	**kern	**text	**kern	**text	**kern	**text	**kern	**fba	**dynam	**kern	**kern	**kern	**dynam	**kern	**dynam
*part11	*part11	*part10	*part10	*part9	*part9	*part8	*part8	*part7	*part7	*part6	*part6	*part5	*part5	*part5	*part4	*part3	*part2	*part2	*part1	*part1
*staff11	*	*staff10	*	*staff9	*staff9	*staff8	*staff8	*staff7	*staff7	*staff6	*staff6	*staff5	*	*	*staff4	*staff3	*staff2	*	*staff1	*
*Ivioln	*	*Ivioln	*	*Iempty	*	*Itenor	*	*Ialto	*	*Ivox	*	*Iorgan	*	*	*Iempty	*Icor	*Iclars	*	*Iclars	*
*I"Violino ſecudno.	*	*I"Violino Primo	*	*I"Baſso.	*	*I"Tenore	*	*I"Alto	*	*I"Canto	*	*I"Organo	*	*	*I"Corno ſecondo in Dis.	*I"Corno Primo in Eb.	*I"Clarinetto ſecondo obligato in Eb.	*	*I"Clarinetto primo obligato in Eb.	*
*I'vl 2	*	*I'vl 1	*	*I'B	*	*I'T	*	*I'A	*	*I'S	*	*I'org	*	*	*I'cor 2 in Es	*I'cor 1 in Es	*I'cl 2 in Es	*	*I'cl 1 in Es	*
*ICstr	*	*ICstr	*	*ICvox	*	*ICvox	*	*ICvox	*	*ICvox	*	*ICklav	*	*	*ICbras	*ICbras	*ICww	*	*ICww	*
*IG	*	*	*	*IGcoro	*	*IGcoro	*	*IGcoro	*	*IGcoro	*	*	*	*	*	*	*	*	*	*
*clefG2	*	*clefG2	*	*clefF4	*	*clefC4	*	*clefC3	*	*clefC1	*	*clefF4	*	*	*clefG2	*clefG2	*clefG2	*	*clefG2	*
*	*	*	*	*	*	*	*	*	*	*	*	*	*	*	*ITrd5c9	*ITrd5c9	*ITrd-2c-3	*	*ITrd-2c-3	*
*k[b-e-a-]	*	*k[b-e-a-]	*	*k[b-e-a-]	*	*k[b-e-a-]	*	*k[b-e-a-]	*	*k[b-e-a-]	*	*k[b-e-a-]	*	*	*k[b-e-a-]	*k[b-e-a-]	*k[b-e-a-]	*	*k[b-e-a-]	*
*E-:	*	*E-:	*	*E-:	*	*E-:	*	*E-:	*	*E-:	*	*E-:	*	*	*E-:	*E-:	*E-:	*	*E-:	*
*M6/8	*	*M6/8	*	*M6/8	*	*M6/8	*	*M6/8	*	*M6/8	*	*M6/8	*	*	*M6/8	*M6/8	*M6/8	*	*M6/8	*
=1	=1	=1	=1	=1	=1	=1	=1	=1	=1	=1	=1	=1	=1	=1	=1	=1	=1	=1	=1	=1
!	!	!	!	!	!	!	!	!	!	!	!	!	!	!	!	!	!	!	!LO:TX:a:B:t=allo moderato	!
!	!	!LO:TX:a:B:t=allo moderato	!	!	!	!	!	!	!	!	!	!LO:TX:a:B:t=allo moderato	!	!	!	!LO:TX:a:B:t=allo moderato	!	!	!	!
!	!	!	!LO:DY:b:t=for&colon;	!LO:TX:a:B:t=allo mod&colon;	!	!LO:TX:a:B:t=allo mod&colon;	!	!LO:TX:a:B:t=allo mod&colon;	!	!LO:TX:a:B:t=allo mod&colon;	!	!	!	!	!LO:TX:a:B:t=allo moderato	!	!LO:TX:a:B:t=allo mod&colon;	!	!	!
4e-/	.	4ee-|\	f	4E-\	Di-	4E-/	Di-	4e-\	Di-	4ee-\	Di-	4E-|\	.	.	4E-/	4e-|\	4a-/	.	4aa-|\	.
8e-/	.	8ee-|\	.	8E-\	-es	8E-/	-es	8e-\	-es	8ee-\	-es	8E-|\	.	.	8E-/	8e-|\	8a-/	.	8aa-|\	.
4g/	.	4gg|\	.	4G\	i-	4G/	i-	4g\	i-	4gg\	i-	4G|\	.	.	4G/	4g|\	4cc/	.	4ccc|\	.
8g/	.	8gg|\	.	8G\	-rae	8G/	-rae	8g\	-rae	8gg\	-rae	8G|\	.	.	8G/	8g|\	8cc/	.	8ccc|\	.
=2	=2	=2	=2	=2	=2	=2	=2	=2	=2	=2	=2	=2	=2	=2	=2	=2	=2	=2	=2	=2
(8b-/L	.	(8bb-\L	.	8B-\L	di-	8B-/L	di-	8b-\L	di-	8bb-\L	di-	(8B-\L	.	.	(8B-/L	8b-|\L	8ee-/L	.	(8eee-\L	.
8g/)	.	8gg\)	.	8G\J	.	8G/J	.	8g\J	.	8gg\J	.	8G\)	.	.	8G/)	8g|\	8cc/	.	8ccc\)	.
8e-|/J	.	8ee-|\J	.	8E-\	-es	8E-/	-es	8e-\	-es	8ee-\	-es	8E-|\J	.	.	8E-|/J	8e-|\J	8a-/J	.	8aa-|\J	.
8B-|/L	.	8b-|\L	.	8BB-/	il-	8B-\	il-	8B-/	il-	8b-\	il-	8BB-|>/L	.	.	8BB-|/L	8B-/L	8e-/L	.	8ee-|\L	.
8B-|/J	.	8b-|\J	.	8BB-/	-la	8B-\	-la	8B-/	-la	8b-\	-la	8BB-|>/J	.	.	8BB-|/J	8B-/J	8e-/J	.	8ee-|\J	.
8r	.	8r	.	8r	.	8r	.	8r	.	8r	.	8r	.	.	8r	8r	8r	.	8r	.
=3	=3	=3	=3	=3	=3	=3	=3	=3	=3	=3	=3	=3	=3	=3	=3	=3	=3	=3	=3	=3
8r	.	8r	.	2.r	.	2.r	.	2.r	.	2.r	.	8BB-|>/	.	.	8BB-|>/	8B-|>/	8r	.	8r	.
!	!LO:DY:b:t=po	!	!LO:DY:b:t=pia&colon;	!	!	!	!	!	!	!	!	!	!	!	!	!	!LO:TX:a:i:t=ſolo	!	!LO:TX:a:i:t=ſolo	!
8f|/L	p	8a-|/L	p	.	.	.	.	.	.	.	.	8r	.	.	8r	8r	8bb-|\L	.	8ddd|\L	.
8f|/J	.	8a-|/J	.	.	.	.	.	.	.	.	.	8r	.	.	8r	8r	8bb-|\J	.	8ddd|\J	.
(8f/L	.	(8a-/L	.	.	.	.	.	.	.	.	.	4r	.	.	4r	4r	(8bb-\L	.	(8ddd\L	.
8d/)	.	8f/)	.	.	.	.	.	.	.	.	.	.	.	.	.	.	8gg\)	.	8bb-\)	.
8e-|/J	.	8g|/J	.	.	.	.	.	.	.	.	.	8r	.	.	8r	8r	8aa-|\J	.	8ccc|\J	.
=4	=4	=4	=4	=4	=4	=4	=4	=4	=4	=4	=4	=4	=4	=4	=4	=4	=4	=4	=4	=4
8r	.	8r	.	2.r	.	2.r	.	2.r	.	2.r	.	8BB-|>/	.	.	8BB-|>/	8B-|>/	8r	.	8r	.
8f|/L	.	8a-|/L	.	.	.	.	.	.	.	.	.	8r	.	.	8r	8r	8bb-|\L	.	8ddd\L	.
8f|/J	.	8a-|/J	.	.	.	.	.	.	.	.	.	8r	.	.	8r	8r	8bb-|\J	.	8ddd\J	.
(8f/L	.	(8a-/L	.	.	.	.	.	.	.	.	.	4r	.	.	4r	4r	(8bb-\L	.	8ddd\L	.
8d/J)	.	8f/)	.	.	.	.	.	.	.	.	.	.	.	.	.	.	8gg\)	.	8bb-\J	.
16e-/LL	.	16g/L	.	.	.	.	.	.	.	.	.	8E-\	5 3	.	8r	8r	(16aa-|\L	.	16ccc\LL	.
16g/JJ	.	16b-/JJ	.	.	.	.	.	.	.	.	.	.	.	.	.	.	16ccc\JJ)	.	16eee-\JJ	.
=5	=5	=5	=5	=5	=5	=5	=5	=5	=5	=5	=5	=5	=5	=5	=5	=5	=5	=5	=5	=5
!	!	!	!	!	!	!	!	!	!	!	!	!LO:TX:t=P:problem=mixed beam	!	!	!	!	!	!	!	!
16g/LL	.	16b-/LL	.	4r	.	4r	.	4r	.	4r	.	8A-\L	8 6	.	4r	4r	16ccc\LL	.	16eee-\LL	.
16f/JJ	.	16a-/J	.	.	.	.	.	.	.	.	.	.	.	.	.	.	16bb-\JJ	.	16ddd\JJ	.
8e-/L	.	8g/	.	.	.	.	.	.	.	.	.	8B-\	6 4	.	.	.	8aa-\L	.	8ccc\L	.
8d/J	.	8f/J	.	8r	.	8r	.	8r	.	8r	.	8BB-/J	5 3	.	8r	8r	8gg\J	.	8bb-\J	.
!	!	!	!	!	!	!	!	!	!	!	!	!	!	!	!	!	!	!	!LO:TX:a:i:t=T&colon;	!
.	.	8qqe-/	.	.	.	.	.	.	.	.	.	.	.	.	.	.	.	.	.	.
!	!LO:DY:b:t=for	!	!LO:DY:b:t=for	!	!	!	!	!	!	!	!	!	!	!	!	!	!	!	!	!
4e-|/	f	4ee-\	f	4E-\	ſol-	4E-/	ſol-	4e-\	ſol-	4ee-\	ſol-	4E-|\	.	.	4E-/	4e-\	4a-/	.	4aa-\	.
8e-|/	.	8ee-\	.	8E-\	-vet	8E-/	-vet	8e-\	-vet	8ee-\	-vet	8E-|\	.	.	8E-/	8e-\	8a-/	.	8aa-\	.
=6	=6	=6	=6	=6	=6	=6	=6	=6	=6	=6	=6	=6	=6	=6	=6	=6	=6	=6	=6	=6
4g|/	.	4gg\	.	4G\	ſae-	4G/	ſae-	4g\	ſae-	4gg\	ſae-	4G|\	.	.	4G/	4g\	4cc/	.	4ccc\	.
8g|/	.	8gg\	.	8G\	-clum	8G/	-clum	8g\	-clum	8gg\	-clum	8G|\	.	.	8G/	8g\	8cc/	.	8ccc\	.
(8b-/L	.	8bb-\L	.	8B-\L	in	8B-/L	in	8b-\L	in	8bb-\L	in	(8B-\L	.	.	8B-/L	8b-\L	8ee-/L	.	8eee-\L	.
8g/)	.	8gg\	.	8G\J	.	8G/J	.	8g\J	.	8gg\J	.	8G\)	.	.	8G/	8g\	8cc/	.	8ccc\	.
8e-|/J	.	8ee-\J	.	8E-\	Fa-	8e-\	Fa-	8e-\	Fa-	8ee-\	Fa-	8E-|\J	.	.	8E-/J	8e-\J	8a-/J	.	8aa-\J	.
!LO:LB:g=original	!	!LO:LB:g=original	!	!	!	!	!	!LO:LB:g=original	!	!LO:LB:g=original	!	!	!	!	!	!	!	!	!	!
!	!	!	!	!	!	!	!	!	!	!	!	!LO:LB:g=original	!	!	!	!	!	!	!	!
=7	=7	=7	=7	=7	=7	=7	=7	=7	=7	=7	=7	=7	=7	=7	=7	=7	=7	=7	=7	=7
!	!	!	!	!	!	!	!	!	!	!	!	!	!	!	!LO:TX:t=P:problem=powinny być 3 takty pauzy zamiast 5	!	!	!	!	!
!	!	!	!	!	!	!	!	!	!	!	!	!	!	!	!LO:TX:a:t=5.	!	!	!	!	!
8qqe-/	.	8qqee-/	.	8qqE-/	.	8qqe-/	.	8qqe-/	.	.	.	8qqE-/	.	.	.	.	8qqa-/	.	8qqaa-/	.
8d-X|/L	.	8dd-X\L	.	8D-X\	-vil-	8d-X\	-vil-	8d-X\	-vil-	8dd-X\	-vil-	8D-X|\L	.	.	2.r	2.r	8g-X/L	.	8gg-X\L	.
!	!	!	!	!	!	!	!	!	!	!	!	!	!	!	!	!	!LO:TX:t=P:problem=druga połowa taktu niewidoczna	!	!	!
8d-|/J	.	8dd-\J	.	8D-\	-la	8d-\	-la	8d-\	-la	8dd-\	-la	8D-|\J	.	.	.	.	8g-/J	.	8gg-\J	.
8r	.	8r	.	8r	.	8r	.	8r	.	8r	.	8r	.	.	.	.	8r	.	8r	.
!	!	!	!	!LO:LB:g=original	!	!	!	!	!	!	!	!	!	!	!	!	!	!	!	!
!	!	!LO:TX:t=P:problem=mixed beam	!	!	!	!	!	!	!	!	!	!	!	!	!	!	!	!	!	!
8r	.	(8ee-\L	.	8r	.	8r	.	8r	.	8r	.	8r	.	.	.	.	4r	.	4r	.
8e-/L	.	8g/)	.	8d-X\	Tes-	8e-\	Tes-	8g\	Tes-	8b-\	Tes-	8d-X\L	4_ 2_	.	.	.	.	.	.	.
8e-/J	.	8g|/J	.	8d-\	-ta	8e-\	-ta	8g\	-ta	8b-\	-ta	8d-\J	x x	.	.	.	8r	.	8r	.
!	!	!	!	!	!	!LO:LB:g=original	!	!	!	!	!	!	!	!	!	!	!LO:LB:g=original	!	!LO:LB:g=original	!
=8	=8	=8	=8	=8	=8	=8	=8	=8	=8	=8	=8	=8	=8	=8	=8	=8	=8	=8	=8	=8
8r	.	(16b-/LL	.	8r	.	8r	.	8r	.	8r	.	8r	.	.	2.r	2.r	2.r	.	2.r	.
.	.	16a-/J)	.	.	.	.	.	.	.	.	.	.	.	.	.	.	.	.	.	.
8e-/L	.	8a-|/J	.	8c\	Da-	8e-\	Da-	8a-\	Da-	8cc\	Da-	8c\L	6_	.	.	.	.	.	.	.
8e-/J	.	8r	.	8c\	-vid	8e-\	-vid	8a-\	-vid	8cc\	-vid	8c\J	.	.	.	.	.	.	.	.
!	!	!LO:TX:t=P:problem=mixed beam	!	!	!	!	!	!	!	!	!	!	!	!	!	!	!	!	!	!
8r	.	(8ee-\L	.	8r	.	8r	.	8r	.	8r	.	8r	.	.	.	.	.	.	.	.
8e-/L	.	8a-/)	.	8c\	cum	8e-\	cum	8a-\	cum	8cc\	cum	8c\L	.	.	.	.	.	.	.	.
8e-/J	.	8a-|/J	.	8c\	ſy-	8e-\	ſy-	8a-\	ſy-	8cc\	ſy-	8c\J	x	.	.	.	.	.	.	.
=9	=9	=9	=9	=9	=9	=9	=9	=9	=9	=9	=9	=9	=9	=9	=9	=9	=9	=9	=9	=9
8r	.	(16cc\LL	.	8r	.	8r	.	8r	.	8r	.	8r	.	.	2.r	2.r	2.r	.	2.r	.
.	.	16b-\J)	.	.	.	.	.	.	.	.	.	.	.	.	.	.	.	.	.	.
8e-/L	.	8b-|\J	.	8G\	-bil-	8e-\	-bil-	8g\	-bil-	8b-\	-bil-	8G\L	6_	.	.	.	.	.	.	.
8e-/J	.	8r	.	8G\	-la	8e-\	-la	8g\	-la	8b-\	-la	8G\J	.	.	.	.	.	.	.	.
8r	.	(8ee-\L	.	8r	.	8r	.	8r	.	8r	.	8r	.	.	.	.	.	.	.	.
8e-/L	.	8b-\)	.	8G\	quan-	8e-\	quan-	8g\	quan-	8b-\	quan-	8G\L	.	.	.	.	.	.	.	.
8e-/J	.	8b-|\J	.	8G\	-tus	8e-\	-tus	8g\	-tus	8b-\	-tus	8G\J	x	.	.	.	.	.	.	.
!	!	!	!	!	!	!	!	!	!	!	!	!	!	!	!LO:LB:g=original	!LO:LB:g=original	!	!	!	!
=10	=10	=10	=10	=10	=10	=10	=10	=10	=10	=10	=10	=10	=10	=10	=10	=10	=10	=10	=10	=10
8r	.	(8ee-\L	.	8r	.	8r	.	8r	.	8r	.	8r	.	.	4r	4r	4r	.	4r	.
*	*	*	*	*	*ij	*	*ij	*	*ij	*	*ij	*	*	*	*	*	*	*	*	*
8e-/L	.	8cc\)	.	8A-\	quan-	8e-\	quan-	8a-\	quan-	8cc\	quan-	8A-\L	.	.	.	.	.	.	.	.
8e-/J	.	8cc|\J	.	8A-\	-tus	8e-\	-tus	8a-\	-tus	8cc\	-tus	8A-\J	.	.	8r	8r	8r	.	8r	.
*	*	*	*	*	*Xij	*	*Xij	*	*Xij	*	*Xij	*	*	*	*	*	*	*	*	*
(16b-/LL	.	(16bb-\LL	.	4.F\	Tre-	4.B-\	Tre-	4.a-\	Tre-	4.ddn\	Tre-	4.F\	6	.	8r	8r	8r	.	8r	.
16a-/	.	16aa-\	.	.	.	.	.	.	.	.	.	.	.	.	.	.	.	.	.	.
16g/	.	16gg\	.	.	.	.	.	.	.	.	.	.	.	.	8r	8r	8r	.	8r	.
16f/	.	16ff\	.	.	.	.	.	.	.	.	.	.	.	.	.	.	.	.	.	.
16e-/	.	16ee-\	.	.	.	.	.	.	.	.	.	.	.	.	8B-/	8f\	8dd\	.	8gg\	.
16d/JJ)	.	16dd\JJ)	.	.	.	.	.	.	.	.	.	.	.	.	.	.	.	.	.	.
=11	=11	=11	=11	=11	=11	=11	=11	=11	=11	=11	=11	=11	=11	=11	=11	=11	=11	=11	=11	=11
(16f/LL	.	(16ff\LL	.	8E-\	-mor	8B-\	-mor	8g\	-mor	8ee-\	-mor	8E-\	.	.	8e-\	8g\	8cc\	.	8aa-\	.
16e-/	.	16ee-\	.	.	.	.	.	.	.	.	.	.	.	.	.	.	.	.	.	.
16a-/	.	16aa-\	.	8r	.	8r	.	8r	.	8r	.	8r	.	.	8r	8r	8r	.	8r	.
16g/	.	16gg\	.	.	.	.	.	.	.	.	.	.	.	.	.	.	.	.	.	.
16cc/	.	16ccc\	.	8r	.	8r	.	8r	.	8r	.	8r	.	.	8r	8r	8r	.	8r	.
16b-/JJ)	.	16bb-\JJ)	.	.	.	.	.	.	.	.	.	.	.	.	.	.	.	.	.	.
*	*	*	*	*	*ij	*	*ij	*	*	*	*	*	*	*	*	*	*	*	*	*
(16b-/LL	.	(16bb-\LL	.	4.F\	Tre-	4.B-\	Tre-	4.a-\	Tre-	4.dd\	Tre-	4.F\	6	.	4r	4r	8r	.	8r	.
16a-/	.	16aa-\	.	.	.	.	.	.	.	.	.	.	.	.	.	.	.	.	.	.
16g/	.	16gg\	.	.	.	.	.	.	.	.	.	.	.	.	.	.	8r	.	8r	.
16f/	.	16ff\	.	.	.	.	.	.	.	.	.	.	.	.	.	.	.	.	.	.
16e-/	.	16ee-\	.	.	.	.	.	.	.	.	.	.	.	.	8B-/	8f\	8dd\	.	8gg\	.
16d/JJ)	.	16dd\JJ)	.	.	.	.	.	.	.	.	.	.	.	.	.	.	.	.	.	.
!	!	!	!	!	!	!	!	!LO:LB:g=original	!	!LO:LB:g=original	!	!	!	!	!	!	!	!	!	!
=12	=12	=12	=12	=12	=12	=12	=12	=12	=12	=12	=12	=12	=12	=12	=12	=12	=12	=12	=12	=12
!	!	!	!	!	!	!	!	!	!	!	!	!	!	!	!LO:TX:t=P:problem=mixed beam	!	!	!	!	!
16e-/LL	.	8ee-\	.	8E-\	-mor	8B-\	-mor	8g\	-mor	8ee-\	-mor	8E-\L	8 3	.	8e-\L	8g\	4.cc\	.	8aa-\	.
*	*	*	*	*	*Xij	*	*Xij	*	*	*	*	*	*	*	*	*	*	*	*	*
16b-/	.	.	.	.	.	.	.	.	.	.	.	.	.	.	.	.	.	.	.	.
16g/	.	16r	.	8E-\	quan-	8e-\	quan-	8g\	quan-	8b-\	est	8E-\	.	.	8E-/	4e-\	.	.	4ee-\	.
16b-/	.	16b-|\LL	.	.	.	.	.	.	.	.	.	.	.	.	.	.	.	.	.	.
16e-/	.	16b-|\	.	8E-\	-tus	8e-\	-tus	8g\	-tus	8b-\	fu-	8E-\J	.	.	8E-/J	.	.	.	.	.
16b-/JJ	.	16b-|\JJ	.	.	.	.	.	.	.	.	.	.	.	.	.	.	.	.	.	.
*	*	*	*	*	*	*	*	*	*	*	*	*tremolo	*	*	*	*	*	*	*	*
16e-/LL	.	(8cc\L	.	4.E-\	Tre-	4.e-\	Tre-	4.a-\	Tre-	4.cc\	-tu-	8E-\L	6 4	.	4.E-/	4.e-\	4.dd\	.	4.ff\	.
16cc/	.	.	.	.	.	.	.	.	.	.	.	.	.	.	.	.	.	.	.	.
16a-/	.	8ee-\)	.	.	.	.	.	.	.	.	.	8E-\	.	.	.	.	.	.	.	.
16cc/	.	.	.	.	.	.	.	.	.	.	.	.	.	.	.	.	.	.	.	.
16e-/	.	8aa-|\J	.	.	.	.	.	.	.	.	.	8E-\J	.	.	.	.	.	.	.	.
16cc/JJ	.	.	.	.	.	.	.	.	.	.	.	.	.	.	.	.	.	.	.	.
!LO:LB:g=original	!	!	!	!	!	!	!	!	!	!	!	!	!	!	!	!	!	!	!	!
=13	=13	=13	=13	=13	=13	=13	=13	=13	=13	=13	=13	=13	=13	=13	=13	=13	=13	=13	=13	=13
16e-/LL	.	8gg\	.	8E-\	-mor	8e-\	-mor	8g\	-mor	8b-\	-rus	8E-\L	5 3	.	4.E-/	4.e-\	4.cc\	.	4.ee-\	.
16b-/	.	.	.	.	.	.	.	.	.	.	.	.	.	.	.	.	.	.	.	.
16g/	.	16r	.	8E-\	est	8e-\	est	8g\	est	8b-\	quan-	8E-\	.	.	.	.	.	.	.	.
16b-/	.	16b-|\LL	.	.	.	.	.	.	.	.	.	.	.	.	.	.	.	.	.	.
16e-/	.	16b-|\	.	8E-\	fu-	8e-\	fu-	8g\	fu-	8b-\	-do	8E-\J	.	.	.	.	.	.	.	.
16b-/JJ	.	16b-|\JJ	.	.	.	.	.	.	.	.	.	.	.	.	.	.	.	.	.	.
!	!	!	!	!LO:LB:g=original	!	!LO:LB:g=original	!	!	!	!	!	!	!	!	!	!	!	!	!	!
16e-/LL	.	(8cc\L	.	4.E-\	-tu-	4.e-\	-tu-	4.a-\	-tu-	4.cc\	Ju-	8E-\L	6 4	.	4.E-/	4.e-\	4.dd\	.	4.ff\	.
16cc/	.	.	.	.	.	.	.	.	.	.	.	.	.	.	.	.	.	.	.	.
16a-/	.	8ee-\)	.	.	.	.	.	.	.	.	.	8E-\	.	.	.	.	.	.	.	.
16cc/	.	.	.	.	.	.	.	.	.	.	.	.	.	.	.	.	.	.	.	.
16e-/	.	8aa-|\J	.	.	.	.	.	.	.	.	.	8E-\J	.	.	.	.	.	.	.	.
16cc/JJ	.	.	.	.	.	.	.	.	.	.	.	.	.	.	.	.	.	.	.	.
!	!	!LO:LB:g=original	!	!	!	!	!	!	!	!	!	!	!	!	!	!	!	!	!	!
=14	=14	=14	=14	=14	=14	=14	=14	=14	=14	=14	=14	=14	=14	=14	=14	=14	=14	=14	=14	=14
16e-/LL	.	8gg\	.	8E-\	-rus	8e-\	-rus	8g\	-rus	8b-\	-dex	8E-\L	5 3	.	4.E-/	4.e-\	4cc/	.	4ee-\	.
16b-/	.	.	.	.	.	.	.	.	.	.	.	.	.	.	.	.	.	.	.	.
16g/	.	16r	.	8E-\	quan-	8e-\	quan-	8b-\	quan-	8gg\	quan-	8E-\	.	.	.	.	.	.	.	.
16b-/	.	16bb-|\LL	.	.	.	.	.	.	.	.	.	.	.	.	.	.	.	.	.	.
16e-/	.	16bb-|\	.	8E-\	-do	8B-\	-do	8b-\	-do	8gg\	-do	8E-\J	.	.	.	.	8ee-\	.	8ccc\	.
16b-/JJ	.	16bb-|\JJ	.	.	.	.	.	.	.	.	.	.	.	.	.	.	.	.	.	.
16d/LL	.	(16bb-\LL	.	4D\	Ju-	4d\	Ju-	4b-\	Ju-	4ff\	Ju-	8D\L	6	.	4.B-/	4.f\	4.ee-\	.	4.bb-\	.
16b-/	.	16ff\)	.	.	.	.	.	.	.	.	.	.	.	.	.	.	.	.	.	.
16f/	.	16ff|\	.	.	.	.	.	.	.	.	.	8D\	.	.	.	.	.	.	.	.
16b-/	.	16bb-|\	.	.	.	.	.	.	.	.	.	.	.	.	.	.	.	.	.	.
16d/	.	16bb-|\	.	8D\	-dex	8B-\	-dex	8b-\	-dex	8ff\	-dex	8D\J	.	.	.	.	.	.	.	.
16b-/JJ	.	16bb-|\JJ	.	.	.	.	.	.	.	.	.	.	.	.	.	.	.	.	.	.
!	!	!	!	!	!	!	!	!	!	!	!	!LO:LB:g=original	!	!	!	!	!	!	!	!
*	*	*	*	*	*	*	*	*	*	*	*	*Xtremolo	*	*	*	*	*	*	*	*
=15	=15	=15	=15	=15	=15	=15	=15	=15	=15	=15	=15	=15	=15	=15	=15	=15	=15	=15	=15	=15
16e-/LL	.	(16bb-\LL	.	4E-\	est	4e-\	est	4b-\	est	4gg\	est	8E-\L	.	.	4.e-\	4.g\	4.ee-\	.	4.ccc\	.
16b-/	.	16gg\)	.	.	.	.	.	.	.	.	.	.	.	.	.	.	.	.	.	.
16g/	.	16gg|\	.	.	.	.	.	.	.	.	.	8E-\	.	.	.	.	.	.	.	.
16b-/	.	16bb-|\	.	.	.	.	.	.	.	.	.	.	.	.	.	.	.	.	.	.
16e-/	.	16bb-|\	.	8G\	ven-	8e-\	ven-	8b-\	ven-	8gg\	ven-	8G\J	6	.	.	.	.	.	.	.
16b-/JJ	.	16bb-|\JJ	.	.	.	.	.	.	.	.	.	.	.	.	.	.	.	.	.	.
!	!	!	!	!LO:TX:t=P:problem=mixed beam	!	!	!	!	!	!	!	!LO:TX:t=P:problem=mixed beam	!	!	!	!	!	!	!	!
8b-/L	.	(16aa-\LL	.	8G\L	-tu-	8c\	-tu-	8a-\L	-tu-	8ff\L	-tu-	8A-\L	.	.	8r	8r	8dd/L	.	8bb-\L	.
.	.	16ff\	.	.	.	.	.	.	.	.	.	.	.	.	.	.	.	.	.	.
16b-/L	.	16gg\	.	8B-\	.	4B-\	.	8g\	.	8ee-\	.	8B-\	6 4	.	8e-\L	8g\L	8cc/	.	8aa-\	.
16g/	.	16ee-\	.	.	.	.	.	.	.	.	.	.	.	.	.	.	.	.	.	.
16a-/	.	16ff\	.	8BB-/J	.	.	.	8f\J	.	8dd\J	.	8BB-/J	5 3	.	8B-\J	8f\J	8b-/J	.	8gg\J	.
16f/JJ	.	16dd\JJ)	.	.	.	.	.	.	.	.	.	.	.	.	.	.	.	.	.	.
=16	=16	=16	=16	=16	=16	=16	=16	=16	=16	=16	=16	=16	=16	=16	=16	=16	=16	=16	=16	=16
*	*	*	*	*	*	*	*	*	*	*	*	*tremolo	*	*	*	*	*	*	*	*
16e-/LL	.	8ee-\	.	8E-\	-rus	8B-\	-rus	8g\	-rus	8ee-\	-rus	8E-\L	.	.	4.E-/	4.e-\	4.cc\	.	4.aa-\	.
16b-/	.	.	.	.	.	.	.	.	.	.	.	.	.	.	.	.	.	.	.	.
16g/	.	16r	.	8E-\	quan-	8e-\	quan-	8g\	quan-	8b-\	quan-	8E-\	.	.	.	.	.	.	.	.
16b-/	.	16b-|/LL	.	.	.	.	.	.	.	.	.	.	.	.	.	.	.	.	.	.
16e-/	.	16b-|/	.	8E-\	-do	8B-\	-do	8g\	-do	8b-\	-do	8E-\J	.	.	.	.	.	.	.	.
16b-/JJ	.	16b-|/JJ	.	.	.	.	.	.	.	.	.	.	.	.	.	.	.	.	.	.
!	!	!	!	!	!	!	!	!LO:LB:g=original	!	!	!	!	!	!	!	!	!	!	!	!
16d/LL	.	(16b-/LL	.	4D\	Ju-	4d\	Ju-	4f\	Ju-	4b-\	Ju-	8D\L	6	.	4.E-/	4.e-\	4.ee-\	.	4.bb-\	.
16b-/	.	16f/)	.	.	.	.	.	.	.	.	.	.	.	.	.	.	.	.	.	.
16f/	.	16f|/	.	.	.	.	.	.	.	.	.	8D\	.	.	.	.	.	.	.	.
16b-/	.	16b-|/	.	.	.	.	.	.	.	.	.	.	.	.	.	.	.	.	.	.
16d/	.	16b-|/	.	8D\	-dex	8B-\	-dex	8f\	-dex	8b-\	-dex	8D\J	.	.	.	.	.	.	.	.
16b-/JJ	.	16b-|/JJ	.	.	.	.	.	.	.	.	.	.	.	.	.	.	.	.	.	.
!	!	!	!	!	!	!	!	!	!	!LO:LB:g=original	!	!	!	!	!	!	!	!	!	!
*	*	*	*	*	*	*	*	*	*	*	*	*Xtremolo	*	*	*	*	*	*	*	*
=17	=17	=17	=17	=17	=17	=17	=17	=17	=17	=17	=17	=17	=17	=17	=17	=17	=17	=17	=17	=17
16e-/LL	.	(16b-/LL	.	4E-\	est	4e-\	est	4g\	est	4b-\	est	8E-\L	.	.	4.E-/	4.e-\	4.ee-\	.	4.ccc\	.
16b-/	.	16g/)	.	.	.	.	.	.	.	.	.	.	.	.	.	.	.	.	.	.
16g/	.	16g|/	.	.	.	.	.	.	.	.	.	8E-\	.	.	.	.	.	.	.	.
16b-/	.	16b-|/	.	.	.	.	.	.	.	.	.	.	.	.	.	.	.	.	.	.
16e-/	.	16b-|/	.	8G\	ven-	8e-\	ven-	8g\	ven-	8b-\	ven-	8G\J	.	.	.	.	.	.	.	.
16b-/JJ	.	16b-|/JJ	.	.	.	.	.	.	.	.	.	.	.	.	.	.	.	.	.	.
!	!	!	!	!LO:TX:t=P:problem=mixed beam	!	!	!	!	!	!	!	!LO:TX:t=P:problem=mixed beam	!	!	!	!	!	!	!	!
8c/L	.	(16a-/LL	.	8G\L	-tu-	8c\	-tu-	8f\L	-tu-	8a-/L	-tu-	8A-\L	.	.	8r	8r	8dd/L	.	8bb-\L	.
.	.	16f/	.	.	.	.	.	.	.	.	.	.	.	.	.	.	.	.	.	.
8B-/	.	16g/	.	8B-\	.	4B-\	.	8e-\	.	8g/	.	8B-\	6 4	.	8e-\L	8g\L	8cc/	.	8aa-\	.
.	.	16e-/	.	.	.	.	.	.	.	.	.	.	.	.	.	.	.	.	.	.
8A-/J	.	16f/	.	8BB-/J	-rus	.	.	8d\J	.	8f/J	.	8BB-/J	5 3	.	8B-\J	8f\J	8b-/J	.	8gg\J	.
.	.	16d/JJ)	.	.	.	.	.	.	.	.	.	.	.	.	.	.	.	.	.	.
=18	=18	=18	=18	=18	=18	=18	=18	=18	=18	=18	=18	=18	=18	=18	=18	=18	=18	=18	=18	=18
!LO:TX:t=P:problem=mixed beam	!	!	!	!	!	!	!	!	!	!	!	!	!	!	!	!	!	!	!	!
8G/L	.	8e-/	.	4.E-\	cun-	4.B-\	-rus	8e-\	-rus	8g\	-rus	8E-\L	.	.	4G/	4e-\	4cc\	.	4aa-\	.
8b-\	.	16r	.	.	.	.	.	4b-\	cun-	4gg\	cun-	8E-\	.	.	.	.	.	.	.	.
.	.	16b-\LL	.	.	.	.	.	.	.	.	.	.	.	.	.	.	.	.	.	.
8b-\J	.	16ee-\	.	.	.	.	.	.	.	.	.	8E-\J	.	.	8r	8r	8ee-\	.	8ccc\	.
.	.	16gg\JJ	.	.	.	.	.	.	.	.	.	.	.	.	.	.	.	.	.	.
*tremolo	*	*	*	*	*	*	*	*	*	*	*	*	*	*	*	*	*	*	*	*
.	.	16qqgg/	.	.	.	.	.	.	.	.	.	.	.	.	.	.	.	.	8qqbb-/	.
8b-\L	.	8ff\	.	4.D\	-cta	4B-\	-cun-	4.b-\	-cta	4.ff\	-cta	8D\L	6	.	4r	4r	4.ee-\	.	4.bb-\	.
8b-\	.	16r	.	.	.	.	.	.	.	.	.	8D\	.	.	.	.	.	.	.	.
.	.	16b-\LL	.	.	.	.	.	.	.	.	.	.	.	.	.	.	.	.	.	.
8b-\J	.	16dd\	.	.	.	8B-\	-cta	.	.	.	.	8D\J	.	.	8r	8r	.	.	.	.
.	.	16ff\JJ	.	.	.	.	.	.	.	.	.	.	.	.	.	.	.	.	.	.
!	!	!	!	!LO:LB:g=original	!	!LO:LB:g=original	!	!	!	!	!	!	!	!	!LO:LB:g=original	!	!	!	!	!
=19	=19	=19	=19	=19	=19	=19	=19	=19	=19	=19	=19	=19	=19	=19	=19	=19	=19	=19	=19	=19
.	.	16qqff/	.	.	.	.	.	.	.	8qqee-/	.	.	.	.	.	.	.	.	8qqbb-/	.
*	*	*	*	*	*	*	*	*	*ij	*	*ij	*	*	*	*	*	*	*	*	*
8an\L	.	8ee-\	.	8c\L	cun-	4c\	cun-	4.an\	cun-	4.ee-\	cun-	8C/L	6\_	.	2.r	2.r	4.ddn\	.	4.aa-\	.
8an\	.	16r	.	8An\J	.	.	.	.	.	.	.	8AAn/	.	.	.	.	.	.	.	.
.	.	16f/LL	.	.	.	.	.	.	.	.	.	.	.	.	.	.	.	.	.	.
8an\J	.	16cc/	.	8F\	-cta	8f\	.	.	.	.	.	8FF/J	x	.	.	.	.	.	.	.
.	.	16ee-/JJ	.	.	.	.	.	.	.	.	.	.	.	.	.	.	.	.	.	.
*	*	*	*	*	*ij	*	*	*	*	*	*	*	*	*	*	*	*	*	*	*
8b-\L	.	16dd\LL	.	8BB-/L	cun-	4f\	-cta	4b-\	-cta	4dd\	-cta	8BB-\L	.	.	.	.	8ee-\	.	8gg\	.
*	*	*	*	*	*	*	*	*	*Xij	*	*Xij	*	*	*	*	*	*	*	*	*
.	.	16ff\	.	.	.	.	.	.	.	.	.	.	.	.	.	.	.	.	.	.
!	!	!	!	!	!	!	!	!	!	!	!	!	!	!	!	!	!LO:TX:t=P:problem=reszta taktu niewidoczna	!	!	!
8b-\	.	16ee-\	.	8D/J	.	.	.	.	.	.	.	8D\	6	.	.	.	8r	.	8r	.
.	.	16dd\	.	.	.	.	.	.	.	.	.	.	.	.	.	.	.	.	.	.
8b-\J	.	16cc\	.	8E-\	-cta	8r	.	8r	.	8r	.	8E-\J	5	.	.	.	8r	.	8r	.
*	*	*	*	*	*Xij	*	*	*	*	*	*	*	*	*	*	*	*	*	*	*
.	.	16b-\JJ	.	.	.	.	.	.	.	.	.	.	.	.	.	.	.	.	.	.
!LO:LB:g=original	!	!LO:LB:g=original	!	!	!	!	!	!	!	!	!	!	!	!	!	!	!LO:LB:g=original	!	!LO:LB:g=original	!
*Xtremolo	*	*	*	*	*	*	*	*	*	*	*	*	*	*	*	*	*	*	*	*
=20	=20	=20	=20	=20	=20	=20	=20	=20	=20	=20	=20	=20	=20	=20	=20	=20	=20	=20	=20	=20
!LO:TX:t=P:problem=mixed beam	!	!	!	!	!	!	!	!	!	!	!	!	!	!	!	!	!	!	!	!
8a-\L	.	16an|\LL	.	4F\	cun-	4f\	cun-	4f\	cun-	4an\	cun-	(8Fn\L	8 n_	.	4.f\	4.f\	4ddn\	.	4.bb-\	.
.	.	16ff|\	.	.	.	.	.	.	.	.	.	.	.	.	.	.	.	.	.	.
8A-/	.	16ff|\	.	.	.	.	.	.	.	.	.	8F\	.	.	.	.	.	.	.	.
.	.	16a|\	.	.	.	.	.	.	.	.	.	.	.	.	.	.	.	.	.	.
8B-/J	.	16b-|\	.	8G\	-cta	8f\	-cta	8g\	-cta	8b-\	-cta	8G\J	3	.	.	.	8ee-\	.	.	.
.	.	16ff|\JJ	.	.	.	.	.	.	.	.	.	.	.	.	.	.	.	.	.	.
8c/L	.	16cc|\LL	.	4An\	ſtric-	4f\	ſtric-	4an\	ſtric-	4cc\	ſtric-	8An\L	3	.	4.f\	4.f\	4ff\	.	4.bb-\	.
.	.	16ff|\	.	.	.	.	.	.	.	.	.	.	.	.	.	.	.	.	.	.
8c/	.	16ff|\	.	.	.	.	.	.	.	.	.	8A\	3	.	.	.	.	.	.	.
.	.	16cc|\	.	.	.	.	.	.	.	.	.	.	.	.	.	.	.	.	.	.
8d/J	.	16dd|\	.	8B-\	-te	8f\	-te	8b-\	-te	8dd\	-te	8B-\J	3	.	.	.	8gg\	.	.	.
.	.	16ff|\JJ	.	.	.	.	.	.	.	.	.	.	.	.	.	.	.	.	.	.
!	!	!	!	!	!	!	!	!	!	!	!	!	!	!	!	!LO:LB:g=original	!	!	!	!
=21	=21	=21	=21	=21	=21	=21	=21	=21	=21	=21	=21	=21	=21	=21	=21	=21	=21	=21	=21	=21
8e-/L	.	16ee-|\LL	.	4c\	diſ-	4f\	diſ-	4cc\	diſ-	4ee-\	diſ-	8c\L	3	.	4.f\	4.f\	4aa-\	.	4.bb-\	.
.	.	16ff|\	.	.	.	.	.	.	.	.	.	.	.	.	.	.	.	.	.	.
8e-/	.	16ee-|\	.	.	.	.	.	.	.	.	.	8c\	3	.	.	.	.	.	.	.
.	.	16ff|\	.	.	.	.	.	.	.	.	.	.	.	.	.	.	.	.	.	.
8d/J	.	16dd|\	.	8B-\	-cu-	8f\	-cu-	8b-\	-cu-	8dd\	-cu-	8B-\J	3	.	.	.	8gg\	.	.	.
.	.	16ff|\JJ	.	.	.	.	.	.	.	.	.	.	.	.	.	.	.	.	.	.
8c/L	.	16cc|\LL	.	8An\L	-su-	4f\	-su-	8an\L	-su-	8cc\L	-su-	8An\L	3	.	4.f\	4.f\	8ff\L	.	4.bb-\	.
.	.	16ff|\	.	.	.	.	.	.	.	.	.	.	.	.	.	.	.	.	.	.
8d/	.	16dd|\	.	8B-\J	.	.	.	8b-\J	.	8dd\J	.	8B-\	3	.	.	.	8gg\	.	.	.
.	.	16ff|\	.	.	.	.	.	.	.	.	.	.	.	.	.	.	.	.	.	.
8B-/J	.	16b-|\	.	8G\	-rus	8f\	-rus	8g\	-rus	8b-\	-rus	8G\J)	3	.	.	.	8ee-\J	.	.	.
.	.	16ff|\JJ	.	.	.	.	.	.	.	.	.	.	.	.	.	.	.	.	.	.
=22	=22	=22	=22	=22	=22	=22	=22	=22	=22	=22	=22	=22	=22	=22	=22	=22	=22	=22	=22	=22
8An/L	.	16an|\LL	.	4F\	cun-	4f\	cun-	4f\	cun-	4an\	cun-	(8F\L	3	.	4.f\	4.f\	4ddn\	.	4.bb-\	.
.	.	16ff|\	.	.	.	.	.	.	.	.	.	.	.	.	.	.	.	.	.	.
8A/	.	16ff|\	.	.	.	.	.	.	.	.	.	8F\	3	.	.	.	.	.	.	.
.	.	16a|\	.	.	.	.	.	.	.	.	.	.	.	.	.	.	.	.	.	.
8B-/J	.	16b-|\	.	8G\	-cta	8f\	-cta	8g\	-cta	8b-\	-cta	8G\J	3	.	.	.	8ee-\	.	.	.
.	.	16ff|\JJ	.	.	.	.	.	.	.	.	.	.	.	.	.	.	.	.	.	.
!	!	!	!	!	!	!	!	!LO:LB:g=original	!	!	!	!	!	!	!	!	!	!	!	!
8c/L	.	16cc|\LL	.	4An\	stric-	4f\	stric-	4an\	stric-	4cc\	ſtric-	8An\L	3	.	4.f\	4.f\	4ff\	.	4.bb-\	.
.	.	16ff|\	.	.	.	.	.	.	.	.	.	.	.	.	.	.	.	.	.	.
8c/	.	16ff|\	.	.	.	.	.	.	.	.	.	8A\	3	.	.	.	.	.	.	.
.	.	16cc|\	.	.	.	.	.	.	.	.	.	.	.	.	.	.	.	.	.	.
8d/J	.	16dd|\	.	8B-\	-te	8f\	-te	8b-\	-te	8dd\	-te	8B-\J	3	.	.	.	8gg\	.	.	.
.	.	16ff|\JJ	.	.	.	.	.	.	.	.	.	.	.	.	.	.	.	.	.	.
!	!	!	!	!	!	!	!	!	!	!LO:LB:g=original	!	!LO:LB:g=original	!	!	!	!	!	!	!	!
=23	=23	=23	=23	=23	=23	=23	=23	=23	=23	=23	=23	=23	=23	=23	=23	=23	=23	=23	=23	=23
8e-/L	.	16ee-|\LL	.	4c\	diſ-	4f\	diſ-	4cc\	diſ-	4ee-\	diſ-	8c\L	3	.	4.f\	4.f\	4aa-\	.	4.bb-\	.
.	.	16ff|\	.	.	.	.	.	.	.	.	.	.	.	.	.	.	.	.	.	.
8e-/	.	16ee-|\	.	.	.	.	.	.	.	.	.	8c\	3	.	.	.	.	.	.	.
.	.	16ff|\	.	.	.	.	.	.	.	.	.	.	.	.	.	.	.	.	.	.
8d/J	.	16dd|\	.	8B-\	-cu-	8f\	-cu-	8b-\	-cu-	8dd\	-cu-	8B-\J	3	.	.	.	8gg\	.	.	.
.	.	16ff|\JJ	.	.	.	.	.	.	.	.	.	.	.	.	.	.	.	.	.	.
!	!	!	!	!	!	!	!	!	!	!	!	!LO:TX:t=P:problem=mixed beam	!	!	!	!	!	!	!	!
8c/L	.	16cc|\LL	.	8An\L	-su-	4f\	-su-	8an\L	-su-	8cc\L	-su-	8An\L	3	.	4.f\	4.f\	8ff\L	.	4.bb-\	.
.	.	16ff|\	.	.	.	.	.	.	.	.	.	.	.	.	.	.	.	.	.	.
8d/	.	16dd|\	.	8B-\J	.	.	.	8b-\J	.	8dd\J	.	8B-\	3	.	.	.	8gg\	.	.	.
.	.	16ff|\	.	.	.	.	.	.	.	.	.	.	.	.	.	.	.	.	.	.
8B-/J	.	16b-|\	.	8D/	-rus	8f\	-rus	8d\	-rus	8b-\	-rus	8D/J)	6	.	.	.	8ee-\J	.	.	.
.	.	16ff|\JJ	.	.	.	.	.	.	.	.	.	.	.	.	.	.	.	.	.	.
=24	=24	=24	=24	=24	=24	=24	=24	=24	=24	=24	=24	=24	=24	=24	=24	=24	=24	=24	=24	=24
4.e-/	.	4.gg\	.	4.E-\	diſ-	4.B-\	diſ-	4.g\	diſ-	4.ee-\	diſ-	16r	.	.	2.r	2.r	2.r	.	2.r	.
.	.	.	.	.	.	.	.	.	.	.	.	16E-\LL	5_ 3_	.	.	.	.	.	.	.
.	.	.	.	.	.	.	.	.	.	.	.	16E-\	.	.	.	.	.	.	.	.
.	.	.	.	.	.	.	.	.	.	.	.	16E-\	.	.	.	.	.	.	.	.
.	.	.	.	.	.	.	.	.	.	.	.	16E-\	.	.	.	.	.	.	.	.
.	.	.	.	.	.	.	.	.	.	.	.	16E-\JJ	.	.	.	.	.	.	.	.
4.ee-\	.	4.aan\	.	4.C\	-cu-	4.c\	-cu-	4.an\	-cu-	4.ee-\	-cu-	16r	.	.	.	.	.	.	.	.
.	.	.	.	.	.	.	.	.	.	.	.	16C/LL	6\	.	.	.	.	.	.	.
.	.	.	.	.	.	.	.	.	.	.	.	16C/	.	.	.	.	.	.	.	.
.	.	.	.	.	.	.	.	.	.	.	.	16C/	.	.	.	.	.	.	.	.
.	.	.	.	.	.	.	.	.	.	.	.	16C/	.	.	.	.	.	.	.	.
.	.	.	.	.	.	.	.	.	.	.	.	16C/JJ	.	.	.	.	.	.	.	.
!	!	!	!	!LO:LB:g=original	!	!	!	!	!	!	!	!	!	!	!	!	!	!	!	!
=25	=25	=25	=25	=25	=25	=25	=25	=25	=25	=25	=25	=25	=25	=25	=25	=25	=25	=25	=25	=25
8dd\L	.	8.bb-\L	.	8BB-/L	-su-	8d\L	-su-	8b-\L	-su-	8dd\L	-su-	8BB-/L	8	.	4r	4r	4r	.	4r	.
8ee-\	.	.	.	8C/	.	8An\	.	8e-\J	.	8cc\	.	8C/	6\	.	.	.	.	.	.	.
.	.	32aan\LL	.	.	.	.	.	.	.	.	.	.	.	.	.	.	.	.	.	.
.	.	32gg\JJ	.	.	.	.	.	.	.	.	.	.	.	.	.	.	.	.	.	.
8dd\J	.	8ff\J	.	8D/J	.	8B-\J	.	16d\LL	.	8b-\J	.	8D/J	6	.	8r	8r	8r	.	8r	.
.	.	.	.	.	.	.	.	16f\JJ	.	.	.	.	.	.	.	.	.	.	.	.
!	!	!LO:TX:t=P:problem=klamra łukowa, kropka zamiast numeru	!	!LO:TX:t=P:problem=mixed beam	!	!	!	!	!	!	!	!LO:TX:t=P:problem=mixed beam	!	!	!	!	!	!	!	!
8qff/	.	16qqaa-X/	.	.	.	.	.	.	.	.	.	.	.	.	.	.	.	.	.	.
16ee-\LL	.	24gg\LL	.	8E-\L	.	8g\	.	8e-\L	.	8cc\L	.	8E-\L	6	.	8r	8r	8r	.	8r	.
.	.	24ff\	.	.	.	.	.	.	.	.	.	.	.	.	.	.	.	.	.	.
32dd\L	.	.	.	.	.	.	.	.	.	.	.	.	.	.	.	.	.	.	.	.
.	.	24ee-\JJ	.	.	.	.	.	.	.	.	.	.	.	.	.	.	.	.	.	.
32cc\JJJ	.	.	.	.	.	.	.	.	.	.	.	.	.	.	.	.	.	.	.	.
8b-\L	.	8dd\L	.	8F\	.	4f\	.	8d\	.	8b-\	.	8F\	6 4	.	8f\L	8f\L	8ee-\L	.	8gg\L	.
8an\J	.	8cc\J	.	8FF/J	.	.	.	8c\J	.	8an\J	.	8FF/J	5 n	.	8f\J	8f\J	8ddn\J	.	8ff\J	.
!	!	!	!	!	!	!LO:LB:g=original	!	!	!	!	!	!	!	!	!	!	!	!	!	!
=26	=26	=26	=26	=26	=26	=26	=26	=26	=26	=26	=26	=26	=26	=26	=26	=26	=26	=26	=26	=26
!	!	!	!	!	!	!LO:TX:t=P:problem=ostatni system na tej stronie źródła niewyraźny	!	!	!	!	!	!	!	!	!	!	!	!	!	!
16d/LL	.	8b-|\L	.	8BB-/	-rus	8f\	-rus	8d\	-rus	8b-\	-rus	8BB-/	.	.	8B-/	8f\	8ee-\	.	8gg\	.
16f/	.	.	.	.	.	.	.	.	.	.	.	.	.	.	.	.	.	.	.	.
16d/	.	8b-|\J	.	8r	.	8r	.	8r	.	8r	.	8r	.	.	8r	8r	8r	.	8r	.
16f/	.	.	.	.	.	.	.	.	.	.	.	.	.	.	.	.	.	.	.	.
16e-/	.	(32dd\LLL	.	8r	.	8r	.	8r	.	8r	.	8F\	.	.	8f\	8f\L	8a-/L	.	8ff\	.
.	.	32cc\	.	.	.	.	.	.	.	.	.	.	.	.	.	.	.	.	.	.
16f/JJ	.	32b-\	.	.	.	.	.	.	.	.	.	.	.	.	.	.	.	.	.	.
.	.	32cc\JJJ)	.	.	.	.	.	.	.	.	.	.	.	.	.	.	.	.	.	.
!	!	!LO:LB:g=original	!	!	!	!	!	!	!	!	!	!	!	!	!	!	!	!	!	!
16d/LL	.	8b-|\L	.	4r	.	4r	.	4r	.	4r	.	8BB-/	.	.	8B-/	8f\J	8g/J	.	8ee-\	.
16f/	.	.	.	.	.	.	.	.	.	.	.	.	.	.	.	.	.	.	.	.
16d/	.	8b-|\J	.	.	.	.	.	.	.	.	.	8r	.	.	8r	8r	8r	.	8r	.
16f/	.	.	.	.	.	.	.	.	.	.	.	.	.	.	.	.	.	.	.	.
16e-/	.	(32dd\LLL	.	8r	.	8r	.	8r	.	8r	.	8F\	.	.	8f\	8f\	8a-/	.	8ff\	.
.	.	32cc\	.	.	.	.	.	.	.	.	.	.	.	.	.	.	.	.	.	.
16f/JJ	.	32b-\	.	.	.	.	.	.	.	.	.	.	.	.	.	.	.	.	.	.
.	.	32cc\JJJ)	.	.	.	.	.	.	.	.	.	.	.	.	.	.	.	.	.	.
!LO:LB:g=original	!	!	!	!	!	!	!	!	!	!	!	!	!	!	!	!	!	!	!	!
=27	=27	=27	=27	=27	=27	=27	=27	=27	=27	=27	=27	=27	=27	=27	=27	=27	=27	=27	=27	=27
16d/LL	.	8d/L 8dd	.	2.r	.	2.r	.	2.r	.	2.r	.	8BB-/L	.	.	8B-/L	8f\L	8g/L	.	8ee-\L	.
16f/	.	.	.	.	.	.	.	.	.	.	.	.	.	.	.	.	.	.	.	.
16d/	.	8d/ 8dd	.	.	.	.	.	.	.	.	.	8BB-/	.	.	8B-/	8f\	8g/	.	8ee-\	.
16f/	.	.	.	.	.	.	.	.	.	.	.	.	.	.	.	.	.	.	.	.
16d/	.	8d/J 8dd	.	.	.	.	.	.	.	.	.	8BB-/J	.	.	8B-/J	8f\J	8g/J	.	8ee-\J	.
16f/JJ	.	.	.	.	.	.	.	.	.	.	.	.	.	.	.	.	.	.	.	.
4d/	.	4d/ 4dd	.	.	.	.	.	.	.	.	.	4BB-/	.	.	4B-/	4f\	4g/	.	4ee-\	.
8r	.	8r	.	.	.	.	.	.	.	.	.	8r	.	.	8r	8r	8r	.	8r	.
=28	=28	=28	=28	=28	=28	=28	=28	=28	=28	=28	=28	=28	=28	=28	=28	=28	=28	=28	=28	=28
!	!LO:DY:b:t=po&colon;	!	!LO:DY:b:t=pia&colon;	!	!	!	!	!	!	!	!	!	!	!LO:DY:b:t=po.	!LO:TX:a:t=18	!	!LO:TX:a:i:t=ſolo	!	!LO:TX:a:i:t=ſolo	!
8B-/L	p	8d/L	p	2.r	.	2.r	.	2.r	.	2.r	.	4BB-|>/	.	p	2.r	2.r	8ee-\L	.	8gg\L	.
8B-/	.	8d/	.	.	.	.	.	.	.	.	.	.	.	.	.	.	8ee-\	.	8gg\	.
8B-/J	.	8d/J	.	.	.	.	.	.	.	.	.	8r	.	.	.	.	8ee-\J	.	8gg\J	.
8.d/L	.	8.f/L	.	.	.	.	.	.	.	.	.	4BB-|>/	.	.	.	.	8.gg\L	.	8.bb-\L	.
16B-/K	.	16d/K	.	.	.	.	.	.	.	.	.	.	.	.	.	.	16ee-\K	.	16gg\K	.
8c/J	.	8e-/J	.	.	.	.	.	.	.	.	.	8r	.	.	.	.	8ff\J	.	8aa-\J	.
!	!	!	!	!	!	!	!	!	!	!	!	!	!	!	!	!	!LO:LB:g=original	!	!	!
=29	=29	=29	=29	=29	=29	=29	=29	=29	=29	=29	=29	=29	=29	=29	=29	=29	=29	=29	=29	=29
8An/L	.	8c/L	.	2.r	.	2.r	.	2.r	.	2.r	.	4F|\	.	.	2.r	2.r	8dd\L	.	8ff\L	.
8A/	.	8c/	.	.	.	.	.	.	.	.	.	.	.	.	.	.	8dd\	.	8ff\	.
8A/J	.	8c/J	.	.	.	.	.	.	.	.	.	8r	.	.	.	.	8dd\J	.	8ff\J	.
8.c/L	.	8.e-/L	.	.	.	.	.	.	.	.	.	4F|\	.	.	.	.	8.ff\L	.	8.aa-\L	.
16A/K	.	16c/K	.	.	.	.	.	.	.	.	.	.	.	.	.	.	16dd\K	.	16ff\K	.
8B-/J	.	8d/J	.	.	.	.	.	.	.	.	.	8r	.	.	.	.	8ee-\J	.	8gg\J	.
=30	=30	=30	=30	=30	=30	=30	=30	=30	=30	=30	=30	=30	=30	=30	=30	=30	=30	=30	=30	=30
8B-/L	.	8d/L	.	2.r	.	2.r	.	2.r	.	2.r	.	8BB-|>/	.	.	2.r	2.r	8ee-\L	.	8gg\L	.
8d/	.	8f/	.	.	.	.	.	.	.	.	.	8r	.	.	.	.	8gg\	.	8bb-\	.
8B-/J	.	8d/J	.	.	.	.	.	.	.	.	.	8r	.	.	.	.	8ee-\J	.	8gg\J	.
!	!	!	!	!	!	!	!	!	!	!	!	!LO:LB:g=original	!	!	!	!	!	!	!	!
8g/L	.	8b-/L	.	.	.	.	.	.	.	.	.	8E-|\	.	.	.	.	8ccc\L	.	8eee-\L	.
8e-/	.	8g/	.	.	.	.	.	.	.	.	.	8r	.	.	.	.	8aa-\	.	8ccc\	.
8c/J	.	8e-/J	.	.	.	.	.	.	.	.	.	8r	.	.	.	.	8ff\J	.	8aa-\J	.
!	!	!	!	!	!	!	!	!	!	!	!	!	!	!	!	!	!	!	!LO:LB:g=original	!
=31	=31	=31	=31	=31	=31	=31	=31	=31	=31	=31	=31	=31	=31	=31	=31	=31	=31	=31	=31	=31
!	!	!	!	!	!	!	!	!	!	!	!	!	!	!	!	!	!LO:TX:t=P:problem=mixed beam	!	!	!
8B-/L	.	8d/L	.	2.r	.	2.r	.	2.r	.	2.r	.	8F|\L	.	.	2.r	2.r	8ee-\L	.	8gg\L	.
8c/	.	8e-/	.	.	.	.	.	.	.	.	.	8F|\	.	.	.	.	8ff\	.	8aa-\	.
8e-/J	.	8c/J	.	.	.	.	.	.	.	.	.	8F|\J	.	.	.	.	8a-/J	.	8ff\J	.
!	!	!	!	!	!	!	!	!	!	!	!	!LO:TX:t=P:problem=mixed beam	!	!	!	!	!	!	!	!
4.d/	.	4.B-/	.	.	.	.	.	.	.	.	.	16BB-|/LL	.	.	.	.	4.g/	.	4.ee-\	.
.	.	.	.	.	.	.	.	.	.	.	.	16B-|\	.	.	.	.	.	.	.	.
.	.	.	.	.	.	.	.	.	.	.	.	16F|\	.	.	.	.	.	.	.	.
.	.	.	.	.	.	.	.	.	.	.	.	16D|\JJ	.	.	.	.	.	.	.	.
.	.	.	.	.	.	.	.	.	.	.	.	8BB-/	.	.	.	.	.	.	.	.
!	!	!	!	!	!	!	!	!	!	!LO:PB:g=original	!	!	!	!	!	!	!	!	!	!
=32	=32	=32	=32	=32	=32	=32	=32	=32	=32	=32	=32	=32	=32	=32	=32	=32	=32	=32	=32	=32
!	!	!	!	!	!	!LO:TX:a:i:t=ſolo	!	!	!	!LO:TX:a:i:t=ſolo	!	!	!	!	!	!	!	!	!	!
8b-\L	.	8dd\L	.	2.r	.	4B-\	Li-	2.r	.	4dd\	Li-	4BB-/	.	.	2.r	2.r	2.r	.	2.r	.
8b-\	.	8dd\	.	.	.	.	.	.	.	.	.	.	.	.	.	.	.	.	.	.
8b-\J	.	8dd\J	.	.	.	8B-\	-ber	.	.	8dd\	-ber	8r	.	.	.	.	.	.	.	.
8.dd\L	.	8.ff\L	.	.	.	8.d\L	ſcrip-	.	.	8.ff\L	ſcrip-	4BB-/	.	.	.	.	.	.	.	.
16b-\K	.	16dd\K	.	.	.	16B-\Jk	.	.	.	16dd\Jk	.	.	.	.	.	.	.	.	.	.
8cc\J	.	8ee-\J	.	.	.	8c\	-tus	.	.	8ee-\	-tus	8r	.	.	.	.	.	.	.	.
=33	=33	=33	=33	=33	=33	=33	=33	=33	=33	=33	=33	=33	=33	=33	=33	=33	=33	=33	=33	=33
8an\L	.	8cc\L	.	2.r	.	4A-\	Pro-	2.r	.	4cc\	pro-	4F\	.	.	2.r	2.r	2.r	.	2.r	.
8a\	.	8cc\	.	.	.	.	.	.	.	.	.	.	.	.	.	.	.	.	.	.
8a\J	.	8cc\J	.	.	.	8A-\	-fe-	.	.	8cc\	-fe-	8r	.	.	.	.	.	.	.	.
8.cc\L	.	8.ee-\L	.	.	.	8.c\L	-re-	.	.	8.ee-\L	-re-	4F\	.	.	.	.	.	.	.	.
16a\K	.	16cc\K	.	.	.	16A-\Jk	.	.	.	16cc\Jk	.	.	.	.	.	.	.	.	.	.
8b-\J	.	8dd\J	.	.	.	8B-\	-tur	.	.	8dd\	-tur	8r	.	.	.	.	.	.	.	.
=34	=34	=34	=34	=34	=34	=34	=34	=34	=34	=34	=34	=34	=34	=34	=34	=34	=34	=34	=34	=34
8b-\L	.	8dd\L	.	2.r	.	8B-\L	in	2.r	.	8dd\L	in	4.BB-/	.	.	2.r	2.r	2.r	.	2.r	.
8dd\	.	8ff\	.	.	.	8d\J	.	.	.	8ff\J	.	.	.	.	.	.	.	.	.	.
8b-\J	.	8dd\J	.	.	.	8B-\	quo	.	.	8dd\	quo	.	.	.	.	.	.	.	.	.
8gg\L	.	8bb-\L	.	.	.	8g\L	to-	.	.	8bb-\L	to-	4.E-\	.	.	.	.	.	.	.	.
8ee-\	.	8gg\	.	.	.	8e-\J	.	.	.	8gg\J	.	.	.	.	.	.	.	.	.	.
8cc\J	.	8ee-\J	.	.	.	8c\	-tum	.	.	8ee-\	-tum	.	.	.	.	.	.	.	.	.
!LO:LB:g=original	!	!	!	!	!	!	!	!	!	!	!	!	!	!	!	!	!	!	!	!
=35	=35	=35	=35	=35	=35	=35	=35	=35	=35	=35	=35	=35	=35	=35	=35	=35	=35	=35	=35	=35
!LO:TX:t=P:problem=mixed beam	!	!	!	!	!	!	!	!	!	!	!	!	!	!	!	!	!	!	!	!
8b-\L	.	8dd\L	.	2.r	.	8B-\L	con-	2.r	.	8dd\L	con-	4.F\	.	.	2.r	2.r	2.r	.	2.r	.
8cc\	.	8ee-\	.	.	.	8c\J	.	.	.	8ee-\J	.	.	.	.	.	.	.	.	.	.
8e-/J	.	8cc\J	.	.	.	8E-/	-ti-	.	.	8cc\	-ti-	.	.	.	.	.	.	.	.	.
!	!	!	!	!	!	!	!	!	!	!	!	!LO:TX:t=P:problem=mixed beam	!	!	!	!	!	!	!	!
4.d/	.	4.b-\	.	.	.	4E-/	-ne-	.	.	8cc\L	-ne-	16BB-/LL	.	.	.	.	.	.	.	.
.	.	.	.	.	.	.	.	.	.	.	.	16B-\	.	.	.	.	.	.	.	.
.	.	.	.	.	.	.	.	.	.	8b-\J	.	16F\	.	.	.	.	.	.	.	.
.	.	.	.	.	.	.	.	.	.	.	.	16D\JJ	.	.	.	.	.	.	.	.
.	.	.	.	.	.	8E-/	-tur	.	.	8b-\	-tur	8BB-/	.	.	.	.	.	.	.	.
!	!	!LO:LB:g=original	!	!	!	!	!	!	!	!	!	!	!	!	!	!	!	!	!	!
=36	=36	=36	=36	=36	=36	=36	=36	=36	=36	=36	=36	=36	=36	=36	=36	=36	=36	=36	=36	=36
!	!	!	!	!	!	!	!	!	!	!	!	!	!	!LO:DY:b:t=mezzo forte	!	!	!	!LO:DY:b:t=piano	!	!LO:DY:b:t=piano
4.g/	.	4.ff\	.	2.r	.	4.Bn\	un-	2.r	.	4.ff\	un-	16G\LL	x 7_	mf	2.r	2.r	4.een\	p	4.bb-\	p
.	.	.	.	.	.	.	.	.	.	.	.	16F#X\	.	.	.	.	.	.	.	.
.	.	.	.	.	.	.	.	.	.	.	.	16G\	.	.	.	.	.	.	.	.
.	.	.	.	.	.	.	.	.	.	.	.	16An\	.	.	.	.	.	.	.	.
.	.	.	.	.	.	.	.	.	.	.	.	16Bn\	.	.	.	.	.	.	.	.
.	.	.	.	.	.	.	.	.	.	.	.	16G\JJ	.	.	.	.	.	.	.	.
4.g/	.	[4.ee-\	.	.	.	4.B\	-de	.	.	4.ee-\	-de	16c\LL	5_ 3_	.	.	.	4.ff\	.	[4.aa-\	.
.	.	.	.	.	.	.	.	.	.	.	.	16B\	.	.	.	.	.	.	.	.
.	.	.	.	.	.	.	.	.	.	.	.	16c\	.	.	.	.	.	.	.	.
.	.	.	.	.	.	.	.	.	.	.	.	16d\	.	.	.	.	.	.	.	.
.	.	.	.	.	.	.	.	.	.	.	.	16e-\	.	.	.	.	.	.	.	.
.	.	.	.	.	.	.	.	.	.	.	.	16c\JJ	.	.	.	.	.	.	.	.
!	!	!	!	!	!	!LO:PB:g=original	!	!	!	!LO:LB:g=original	!	!	!	!	!	!	!	!	!	!
=37	=37	=37	=37	=37	=37	=37	=37	=37	=37	=37	=37	=37	=37	=37	=37	=37	=37	=37	=37	=37
4.f/	.	4.ee-\]	.	2.r	.	4.An\	Mun-	2.r	.	4.ee-\	mun-	16Fn\LL	7_ x_	.	2.r	2.r	4.ff\	.	4.aa-\]	.
.	.	.	.	.	.	.	.	.	.	.	.	16En\	.	.	.	.	.	.	.	.
.	.	.	.	.	.	.	.	.	.	.	.	16F\	.	.	.	.	.	.	.	.
.	.	.	.	.	.	.	.	.	.	.	.	16G\	.	.	.	.	.	.	.	.
.	.	.	.	.	.	.	.	.	.	.	.	16An\	.	.	.	.	.	.	.	.
.	.	.	.	.	.	.	.	.	.	.	.	16F\JJ	.	.	.	.	.	.	.	.
4.f/	.	[4.dd\	.	.	.	4.B-\	-dus	.	.	[4.dd\	-dus	16B-\LL	5_ 3_	.	.	.	4.ee-\	.	[4.gg\	.
.	.	.	.	.	.	.	.	.	.	.	.	16A\	.	.	.	.	.	.	.	.
.	.	.	.	.	.	.	.	.	.	.	.	16B-\	.	.	.	.	.	.	.	.
.	.	.	.	.	.	.	.	.	.	.	.	16c\	.	.	.	.	.	.	.	.
.	.	.	.	.	.	.	.	.	.	.	.	16c\	.	.	.	.	.	.	.	.
.	.	.	.	.	.	.	.	.	.	.	.	16B-\JJ	.	.	.	.	.	.	.	.
!	!	!	!	!	!	!	!	!	!	!	!	!LO:LB:g=original	!	!	!	!	!	!	!	!
=38	=38	=38	=38	=38	=38	=38	=38	=38	=38	=38	=38	=38	=38	=38	=38	=38	=38	=38	=38	=38
4.e-/	.	4.dd\]	.	2.r	.	4.G/	Ju-	2.r	.	4.dd\]	Ju-	16E-X\LL	x 7_	.	2.r	2.r	4.ee-\	.	4.gg\]	.
.	.	.	.	.	.	.	.	.	.	.	.	16D\	.	.	.	.	.	.	.	.
.	.	.	.	.	.	.	.	.	.	.	.	16E-\	.	.	.	.	.	.	.	.
.	.	.	.	.	.	.	.	.	.	.	.	16F\	.	.	.	.	.	.	.	.
.	.	.	.	.	.	.	.	.	.	.	.	16G\	.	.	.	.	.	.	.	.
.	.	.	.	.	.	.	.	.	.	.	.	16E-\JJ	.	.	.	.	.	.	.	.
4.e-/	.	[4.cc\	.	.	.	4.An/	-di-	.	.	[4.cc\	-di-	16An\LL	5_ 3_	.	.	.	4.ddn\	.	[4.ff\	.
.	.	.	.	.	.	.	.	.	.	.	.	16G\	.	.	.	.	.	.	.	.
.	.	.	.	.	.	.	.	.	.	.	.	16A\	.	.	.	.	.	.	.	.
.	.	.	.	.	.	.	.	.	.	.	.	16B-\	.	.	.	.	.	.	.	.
.	.	.	.	.	.	.	.	.	.	.	.	16c\	.	.	.	.	.	.	.	.
.	.	.	.	.	.	.	.	.	.	.	.	16A\JJ	.	.	.	.	.	.	.	.
=39	=39	=39	=39	=39	=39	=39	=39	=39	=39	=39	=39	=39	=39	=39	=39	=39	=39	=39	=39	=39
4.d/	.	4.cc\]	.	2.r	.	4.F#X/	-ce-	2.r	.	4.cc\]	-ce-	16D\LL	x 7_	.	2.r	2.r	4.dd\	.	4.ff\]	.
.	.	.	.	.	.	.	.	.	.	.	.	16C#X\	.	.	.	.	.	.	.	.
.	.	.	.	.	.	.	.	.	.	.	.	16D\	.	.	.	.	.	.	.	.
.	.	.	.	.	.	.	.	.	.	.	.	16En\	.	.	.	.	.	.	.	.
.	.	.	.	.	.	.	.	.	.	.	.	16F#X\	.	.	.	.	.	.	.	.
.	.	.	.	.	.	.	.	.	.	.	.	16D\JJ	.	.	.	.	.	.	.	.
4.d/	.	4.b-\	.	.	.	4.G/	-tur	.	.	4.b-\	-tur	16G\LL	5_ 3_	.	.	.	4.cc\	.	4.ee-\	.
.	.	.	.	.	.	.	.	.	.	.	.	16F#\	.	.	.	.	.	.	.	.
.	.	.	.	.	.	.	.	.	.	.	.	16G\	.	.	.	.	.	.	.	.
.	.	.	.	.	.	.	.	.	.	.	.	16An\	.	.	.	.	.	.	.	.
.	.	.	.	.	.	.	.	.	.	.	.	16B-\	.	.	.	.	.	.	.	.
.	.	.	.	.	.	.	.	.	.	.	.	16G\JJ	.	.	.	.	.	.	.	.
=40	=40	=40	=40	=40	=40	=40	=40	=40	=40	=40	=40	=40	=40	=40	=40	=40	=40	=40	=40	=40
4.f#X/	.	8an\L	.	2.r	.	4F#X/	Ju-	2.r	.	8an\L	Ju-	4.D\	x #	.	2.r	2.r	4.bX/	.	8ddn\L	.
.	.	8dd\	.	.	.	.	.	.	.	8dd\J	.	.	.	.	.	.	.	.	8gg\	.
.	.	8cc\J	.	.	.	8F#/	-di-	.	.	8cc\	-di-	.	.	.	.	.	.	.	8ff\J	.
4.g/	.	4.b-\	.	.	.	4.G/	-ce-	.	.	4.b-\	-ce-	16r	.	.	.	.	4.cc/	.	4.ee-\	.
.	.	.	.	.	.	.	.	.	.	.	.	16E-X\LL	5_ 3_	.	.	.	.	.	.	.
.	.	.	.	.	.	.	.	.	.	.	.	16D\	.	.	.	.	.	.	.	.
.	.	.	.	.	.	.	.	.	.	.	.	16E-\	.	.	.	.	.	.	.	.
.	.	.	.	.	.	.	.	.	.	.	.	16D\	.	.	.	.	.	.	.	.
.	.	.	.	.	.	.	.	.	.	.	.	16C#X\JJ	.	.	.	.	.	.	.	.
=41	=41	=41	=41	=41	=41	=41	=41	=41	=41	=41	=41	=41	=41	=41	=41	=41	=41	=41	=41	=41
4.f#X/	.	8an\L	.	2.r	.	8F#X/	-tur-	2.r	.	8an\	-tur	4.D\	x #	.	2.r	2.r	4.bX/	.	8ddn\L	.
*	*	*	*	*	*	*	*ij	*	*	*	*ij	*	*	*	*	*	*	*	*	*
.	.	8dd\	.	.	.	8F#/	Ju-	.	.	8dd\	Ju-	.	.	.	.	.	.	.	8gg\	.
.	.	8cc\J	.	.	.	8F#/	-di-	.	.	8cc\	-di-	.	.	.	.	.	.	.	8ff\J	.
4.g/	.	4.b-\	.	.	.	4.G/	-ce-	.	.	4.b-\	-ce-	16r	.	.	.	.	4.cc/	.	4.ee-\	.
.	.	.	.	.	.	.	.	.	.	.	.	16E-X\LL	5_ 3_	.	.	.	.	.	.	.
.	.	.	.	.	.	.	.	.	.	.	.	16D\	.	.	.	.	.	.	.	.
.	.	.	.	.	.	.	.	.	.	.	.	16E-\	.	.	.	.	.	.	.	.
.	.	.	.	.	.	.	.	.	.	.	.	16D\	.	.	.	.	.	.	.	.
.	.	.	.	.	.	.	.	.	.	.	.	16C#X\JJ	.	.	.	.	.	.	.	.
!	!	!	!	!LO:PB:g=original	!	!	!	!LO:PB:g=original	!	!	!	!	!	!	!	!	!	!	!	!
=42	=42	=42	=42	=42	=42	=42	=42	=42	=42	=42	=42	=42	=42	=42	=42	=42	=42	=42	=42	=42
!LO:TX:a:i:t=T&colon;	!LO:DY:b:t=For	!	!	!	!	!	!	!	!	!	!	!	!	!	!	!	!	!	!	!
*	*	*	*	*	*	*	*	*	*	*	*	*tremolo	*	*	*	*	*	*	*	*
(16f#X/LL	f	(16an\LL	.	8r	.	8F#X/	-tur	8r	.	8an\	-tur	8D\L	x #	.	2.r	2.r	4.ddn\	.	4.ddn\	.
*	*	*	*	*	*	*	*Xij	*	*	*	*Xij	*	*	*	*	*	*	*	*	*
16a-/	.	16dd\	.	.	.	.	.	.	.	.	.	.	.	.	.	.	.	.	.	.
16f#/)	.	16ff#X\	.	8D\	Ju-	8d\	Ju-	8f#X\	Ju-	8a\	Ju-	8D\	.	.	.	.	.	.	.	.
(16a-/	.	16aa-\	.	.	.	.	.	.	.	.	.	.	.	.	.	.	.	.	.	.
16f#/	.	16ff#\	.	8D\	-dex	8d\	-dex	8f#\	-dex	8a\	-dex	8D\J	.	.	.	.	.	.	.	.
16a-/JJ)	.	16dd\JJ)	.	.	.	.	.	.	.	.	.	.	.	.	.	.	.	.	.	.
(16g/LL	.	(16b-\LL	.	4D\	er-	4d\	er-	4g\	er-	4b-\	er-	8D\L	6 4	.	.	.	4.cc\	.	4.ee-\	.
16b-/	.	16dd\	.	.	.	.	.	.	.	.	.	.	.	.	.	.	.	.	.	.
16g/)	.	16gg\	.	.	.	.	.	.	.	.	.	8D\	.	.	.	.	.	.	.	.
(16b-/	.	16bb-\	.	.	.	.	.	.	.	.	.	.	.	.	.	.	.	.	.	.
16g/	.	16gg\	.	8D\	-go	8d\	-go	8g\	-go	8b-\	-go	8D\J	.	.	.	.	.	.	.	.
16b-/JJ)	.	16dd\JJ)	.	.	.	.	.	.	.	.	.	.	.	.	.	.	.	.	.	.
=43	=43	=43	=43	=43	=43	=43	=43	=43	=43	=43	=43	=43	=43	=43	=43	=43	=43	=43	=43	=43
(16an\LL	.	(16an\LL	.	4D\	cum	4d\	cum	4an\	cum	4cc\	cum	8D\L	7 #	.	2.r	2.r	4.bX/	.	4.ff\	.
16cc\	.	16dd\	.	.	.	.	.	.	.	.	.	.	.	.	.	.	.	.	.	.
16a\	.	16ff#X\	.	.	.	.	.	.	.	.	.	8D\	.	.	.	.	.	.	.	.
16cc\	.	16aa-\)	.	.	.	.	.	.	.	.	.	.	.	.	.	.	.	.	.	.
16a\	.	16ccc|\	.	8D\	ſe-	8d\	ſe-	8a\	ſe-	8cc\	ſe-	8D\J	.	.	.	.	.	.	.	.
16cc\JJ)	.	16ccc|\JJ	.	.	.	.	.	.	.	.	.	.	.	.	.	.	.	.	.	.
!	!	!	!	!	!	!LO:LB:g=original	!	!	!	!LO:LB:g=original	!	!	!	!	!	!	!	!	!	!
(16g\LL	.	(16ccc\LL	.	4D\	-de-	4d\	-de-	4g\	-de-	4b-\	-de-	8D\L	6 4	.	.	.	4.cc/	.	4.ee-\	.
16b-\	.	16bb-\	.	.	.	.	.	.	.	.	.	.	.	.	.	.	.	.	.	.
16g\	.	16aa-\	.	.	.	.	.	.	.	.	.	8D\	.	.	.	.	.	.	.	.
16b-\	.	16gg\J)	.	.	.	.	.	.	.	.	.	.	.	.	.	.	.	.	.	.
16g\	.	8gg|\J	.	8D\	-bit	8d\	-bit	8g\	-bit	8b-\	-bit	8D\J	.	.	.	.	.	.	.	.
16b-\JJ)	.	.	.	.	.	.	.	.	.	.	.	.	.	.	.	.	.	.	.	.
!LO:LB:g=original	!	!	!	!	!	!	!	!	!	!	!	!LO:LB:g=original	!	!	!	!	!LO:LB:g=original	!	!	!
=44	=44	=44	=44	=44	=44	=44	=44	=44	=44	=44	=44	=44	=44	=44	=44	=44	=44	=44	=44	=44
!	!	!	!	!	!	!	!	!	!	!	!	!	!	!	!	!	!LO:TX:t=P:problem=niewidoczne dwa najbliższe takty	!	!	!
(16f#X/LL	.	(16an\LL	.	4D\	quid	4d\	quid	4f#X\	quid	4an\	quid	8D\L	5 #	.	2.r	2.r	2.r	.	4.ddn\	.
16an/	.	16dd\	.	.	.	.	.	.	.	.	.	.	.	.	.	.	.	.	.	.
16f#/	.	16ff#X\	.	.	.	.	.	.	.	.	.	8D\	.	.	.	.	.	.	.	.
16a/	.	16aa-\	.	.	.	.	.	.	.	.	.	.	.	.	.	.	.	.	.	.
*	*	*	*	*	*ij	*	*ij	*	*ij	*	*ij	*	*	*	*	*	*	*	*	*
16f#/	.	16ff#\	.	8D\	quid	8d\	quid	8f#\	quid	8a\	quid	8D\J	.	.	.	.	.	.	.	.
*	*	*	*	*	*Xij	*	*Xij	*	*Xij	*	*Xij	*	*	*	*	*	*	*	*	*
16a/JJ)	.	16dd\JJ)	.	.	.	.	.	.	.	.	.	.	.	.	.	.	.	.	.	.
!	!	!LO:LB:g=original	!	!	!	!	!	!	!	!	!	!	!	!	!	!	!	!	!	!
(16g/LL	.	(16b-\LL	.	4D\	la-	4d\	la-	4g\	la-	4b-\	la-	8D\L	6 4	.	.	.	.	.	4.ee-\	.
16b-/	.	16dd\	.	.	.	.	.	.	.	.	.	.	.	.	.	.	.	.	.	.
16g/	.	16gg\	.	.	.	.	.	.	.	.	.	8D\	.	.	.	.	.	.	.	.
16b-/	.	16bb-\	.	.	.	.	.	.	.	.	.	.	.	.	.	.	.	.	.	.
16g/	.	16gg\	.	8D\	-tet	8d\	-tet	8g\	-tet	8b-\	-tet	8D\J	.	.	.	.	.	.	.	.
16b-/JJ)	.	16dd\JJ)	.	.	.	.	.	.	.	.	.	.	.	.	.	.	.	.	.	.
=45	=45	=45	=45	=45	=45	=45	=45	=45	=45	=45	=45	=45	=45	=45	=45	=45	=45	=45	=45	=45
(16an\LL	.	(16an\LL	.	4D\	ap-	4d\	ap-	4an\	ap-	4cc\	ap-	8D\L	7 3	.	2.r	2.r	2.r	.	4.ff\	.
16cc\	.	16dd\	.	.	.	.	.	.	.	.	.	.	.	.	.	.	.	.	.	.
16a\	.	16ff#X\	.	.	.	.	.	.	.	.	.	8D\	.	.	.	.	.	.	.	.
16cc\	.	16aa-\)	.	.	.	.	.	.	.	.	.	.	.	.	.	.	.	.	.	.
16a\	.	16ccc|\	.	8D\	-pa-	8d\	-pa-	8a\	-pa-	8cc\	-pa-	8D\J	.	.	.	.	.	.	.	.
16cc\JJ)	.	16ccc|\JJ	.	.	.	.	.	.	.	.	.	.	.	.	.	.	.	.	.	.
(16g\LL	.	(16ccc\LL	.	4D\	-re-	4d\	-re-	4g\	-re-	4b-\	-re-	8D\L	6 4	.	.	.	.	.	4.ee-\	.
16b-\	.	16bb-\	.	.	.	.	.	.	.	.	.	.	.	.	.	.	.	.	.	.
16g\	.	16aa-\	.	.	.	.	.	.	.	.	.	8D\	.	.	.	.	.	.	.	.
16b-\	.	16gg\J)	.	.	.	.	.	.	.	.	.	.	.	.	.	.	.	.	.	.
16g\	.	8gg|\J	.	8D\	-bit	8d\	-bit	8g\	-bit	8b-\	-bit	8D\J	.	.	.	.	.	.	.	.
16b-\JJ)	.	.	.	.	.	.	.	.	.	.	.	.	.	.	.	.	.	.	.	.
!	!	!	!	!	!	!	!	!	!	!	!	!	!	!	!LO:LB:g=original	!	!	!	!	!
=46	=46	=46	=46	=46	=46	=46	=46	=46	=46	=46	=46	=46	=46	=46	=46	=46	=46	=46	=46	=46
*tremolo	*	*	*	*	*	*	*	*	*	*	*	*	*	*	*	*	*	*	*	*
16g/LL	.	(16bbn\LL	.	8F\	ni-	8d\	ni-	8g\	ni-	8bn\	ni-	8Fn\L	4 2	.	4.G/	4.g\	4.een\	.	4.ccc\	.
16g/	.	16gg\JJ)	.	.	.	.	.	.	.	.	.	.	.	.	.	.	.	.	.	.
16g/	.	16r	.	8F\	-hil	8d\	-hil	8g\	-hil	8b\	-hil	8Fn\	.	.	.	.	.	.	.	.
16g/	.	16bb|\LL	.	.	.	.	.	.	.	.	.	.	.	.	.	.	.	.	.	.
16g/	.	16bb|\	.	8F\	in-	8d\	in-	8g\	in-	8b\	in-	8Fn\J	.	.	.	.	.	.	.	.
16g/JJ	.	16bb|\JJ	.	.	.	.	.	.	.	.	.	.	.	.	.	.	.	.	.	.
16g/LL	.	(16ccc\LL	.	4E-\	-ul-	4e-\	-ul-	4g\	-ul-	4cc\	-ul-	8E-\L	x 6	.	4.G/	4.g\	4.ff\	.	4.ccc\	.
16g/	.	16gg\JJ)	.	.	.	.	.	.	.	.	.	.	.	.	.	.	.	.	.	.
16g/	.	16r	.	.	.	.	.	.	.	.	.	8E-\	.	.	.	.	.	.	.	.
!	!	!	!LO:DY:a:t=forte	!	!	!	!	!	!	!	!	!	!	!	!	!	!	!	!	!
16g/	.	16ccc'\LL	f	.	.	.	.	.	.	.	.	.	.	.	.	.	.	.	.	.
16g/	.	16ccc'\	.	8E-\	-tum	8e-\	-tum	8g\	-tum	8cc\	-tum	8E-\J	.	.	.	.	.	.	.	.
16g/JJ	.	16ccc'\JJ	.	.	.	.	.	.	.	.	.	.	.	.	.	.	.	.	.	.
!	!	!	!	!LO:LB:g=original	!	!	!	!LO:LB:g=original	!	!	!	!	!	!	!	!	!	!	!	!
=47	=47	=47	=47	=47	=47	=47	=47	=47	=47	=47	=47	=47	=47	=47	=47	=47	=47	=47	=47	=47
16g/LL	.	16ddd\LL	.	4BBn/	re-	4f\	re-	4g\	re-	4dd\	re-	8BBn/L	x 6	.	4.G/	4.g\	4.gg\	.	4.ccc\	.
16g/	.	16bbn\JJ	.	.	.	.	.	.	.	.	.	.	.	.	.	.	.	.	.	.
16g/	.	8.gg\L	.	.	.	.	.	.	.	.	.	8BBn/	.	.	.	.	.	.	.	.
16g/	.	.	.	.	.	.	.	.	.	.	.	.	.	.	.	.	.	.	.	.
16g/	.	.	.	8BB/	-ma-	8f\	-ma-	8g\	-ma-	8dd\	-ma-	8BBn/J	.	.	.	.	.	.	.	.
16g/JJ	.	16ff\Jk	.	.	.	.	.	.	.	.	.	.	.	.	.	.	.	.	.	.
16g/LL	.	(16ee-\LL	.	4C/	-ne-	4e-\	-ne-	4g\	-ne-	4ee-\	-ne-	8C/L	x 3	.	4.G/	4.g\	4.aa-\	.	4.ccc\	.
16g/	.	16gg\	.	.	.	.	.	.	.	.	.	.	.	.	.	.	.	.	.	.
16g/	.	16gg\	.	.	.	.	.	.	.	.	.	8C/	.	.	.	.	.	.	.	.
16g/	.	16ccc\J)	.	.	.	.	.	.	.	.	.	.	.	.	.	.	.	.	.	.
16g/	.	8ccc|\J	.	8C/	-bit	8e-\	-bit	8g\	-bit	8ee-\	-bit	8C/J	.	.	.	.	.	.	.	.
16g/JJ	.	.	.	.	.	.	.	.	.	.	.	.	.	.	.	.	.	.	.	.
!	!	!	!	!	!	!	!	!	!	!	!	!	!	!	!	!	!	!	!LO:LB:g=original	!
=48	=48	=48	=48	=48	=48	=48	=48	=48	=48	=48	=48	=48	=48	=48	=48	=48	=48	=48	=48	=48
16fn/LL	.	(16aan\LL	.	8E-\	ni-	8c\	[[ni-	8fn\	ni-	8an\	ni-	8E-\L	4 2	.	4.f\	4.f\	4.ddn\	.	4.bb-\	.
16fn/	.	16ff\JJ)	.	.	.	.	.	.	.	.	.	.	.	.	.	.	.	.	.	.
16fn/	.	16r	.	8E-\	-hil	8c\	-hil	8f\	-hil	8a\	-hil	8E-\	.	.	.	.	.	.	.	.
16fn/	.	16aa|\LL	.	.	.	.	.	.	.	.	.	.	.	.	.	.	.	.	.	.
16fn/	.	16aa|\	.	8E-\	in	8c\	in	8f\	in	8a\	in	8E-\J	.	.	.	.	.	.	.	.
16fn/JJ	.	16aa|\JJ	.	.	.	.	.	.	.	.	.	.	.	.	.	.	.	.	.	.
16f/LL	.	(16bb-\LL	.	4D\	ul-	4d\	ul-	4f\	ul-	4b-\	ul-	8D\L	x 6	.	4.f\	4.f\	4.ee--X\	.	4.bb-\	.
16f/	.	16ff\JJ)	.	.	.	.	.	.	.	.	.	.	.	.	.	.	.	.	.	.
16f/	.	16r	.	.	.	.	.	.	.	.	.	8D\	.	.	.	.	.	.	.	.
16f/	.	16bb-|\LL	.	.	.	.	.	.	.	.	.	.	.	.	.	.	.	.	.	.
16f/	.	16bb-|\	.	8D\	-tum	8d\	-tum]]	8f\	-tum	8b-\	-tum	8D\J	.	.	.	.	.	.	.	.
16f/JJ	.	16bb-|\JJ	.	.	.	.	.	.	.	.	.	.	.	.	.	.	.	.	.	.
!	!	!	!	!	!	!	!LO:LB:g=original	!	!	!LO:LB:g=original	!	!	!	!	!	!	!	!	!	!
=49	=49	=49	=49	=49	=49	=49	=49	=49	=49	=49	=49	=49	=49	=49	=49	=49	=49	=49	=49	=49
16f/LL	.	16ccc\LL	.	4AAn/	re-	4e-\	re-	4f\	re-	4cc\	re-	8AAn/L	6 3	.	4.f\	4.f\	4.ff\	.	4.bb-\	.
16f/	.	16aan\JJ	.	.	.	.	.	.	.	.	.	.	.	.	.	.	.	.	.	.
16f/	.	8.ff\L	.	.	.	.	.	.	.	.	.	8AAn/	.	.	.	.	.	.	.	.
16f/	.	.	.	.	.	.	.	.	.	.	.	.	.	.	.	.	.	.	.	.
16f/	.	.	.	8AA/	-ma-	8e-\	-ma-	8f\	-ma-	8cc\	-ma-	8AAn/J	.	.	.	.	.	.	.	.
16f/JJ	.	16ee-\Jk	.	.	.	.	.	.	.	.	.	.	.	.	.	.	.	.	.	.
!	!	!LO:LB:g=original	!	!	!	!	!	!	!	!	!	!	!	!	!	!	!	!	!	!
16f/LL	.	(16dd\LL	.	4BB-/	-ne-	4d\	-ne-	4f\	-ne-	4dd\	-ne-	8BB-/L	.	.	4.B-/	4.f\	4.gg\	.	4.bb-\	.
16f/	.	16ff\	.	.	.	.	.	.	.	.	.	.	.	.	.	.	.	.	.	.
16f/	.	16ff\	.	.	.	.	.	.	.	.	.	8BB-/	.	.	.	.	.	.	.	.
16f/	.	16bb-\J)	.	.	.	.	.	.	.	.	.	.	.	.	.	.	.	.	.	.
16f/	.	8bb-|\J	.	8BB-/	-bit	8d\	-bit	8f\	-bit	8dd\	-bit	8BB-/J	.	.	.	.	.	.	.	.
16f/JJ	.	.	.	.	.	.	.	.	.	.	.	.	.	.	.	.	.	.	.	.
!	!	!	!	!	!	!	!	!	!	!	!	!	!	!	!	!LO:LB:g=original	!	!	!	!
=50	=50	=50	=50	=50	=50	=50	=50	=50	=50	=50	=50	=50	=50	=50	=50	=50	=50	=50	=50	=50
*	*	*	*	*	*ij	*	*	*	*ij	*	*ij	*	*	*	*	*	*	*	*	*
8f/ 8b-L	.	(16aa-X\LL	.	4.D\	re-	4.f\	re-	4.b-\	re-	4.aa-X\	re-	8D\L	6 5-	.	4.B-/	4.f\	4.ee-\	.	4.bb-\	.
.	.	16ff\JJ)	.	.	.	.	.	.	.	.	.	.	.	.	.	.	.	.	.	.
8f/ 8b-	.	16r	.	.	.	.	.	.	.	.	.	8D\	.	.	.	.	.	.	.	.
!	!	!LO:TX:t=P:problem=mixed beam	!	!	!	!	!	!	!	!	!	!	!	!	!	!	!	!	!	!
.	.	16dd|\LL	.	.	.	.	.	.	.	.	.	.	.	.	.	.	.	.	.	.
8f/ 8b-J	.	(16ff\	.	.	.	.	.	.	.	.	.	8D\J	.	.	.	.	.	.	.	.
.	.	16a-/JJ)	.	.	.	.	.	.	.	.	.	.	.	.	.	.	.	.	.	.
8g/ 8b-L	.	(16g/LL	.	4.E-\	-ma-	4.e-\	-ma-	4.b-\	-ma-	4.gg\	-ma-	8E-\L	x 3	.	4.e-\	4.g\	4.ee-\	.	4.ccc\	.
.	.	16b-/JJ)	.	.	.	.	.	.	.	.	.	.	.	.	.	.	.	.	.	.
8g/ 8b-	.	16r	.	.	.	.	.	.	.	.	.	8E-\	.	.	.	.	.	.	.	.
.	.	16ee-|\LL	.	.	.	.	.	.	.	.	.	.	.	.	.	.	.	.	.	.
8g/ 8b-J	.	(16gg\	.	.	.	.	.	.	.	.	.	8E-\J	.	.	.	.	.	.	.	.
.	.	16bb-\JJ)	.	.	.	.	.	.	.	.	.	.	.	.	.	.	.	.	.	.
=51	=51	=51	=51	=51	=51	=51	=51	=51	=51	=51	=51	=51	=51	=51	=51	=51	=51	=51	=51	=51
8f/ 8b-L	.	(16aa-X\LL	.	4.D\	-ne-	4.f\	-ne-	4.b-\	-ne-	4.aa-\	-ne-	8D\L	6 5	.	4.B-/	4.f\	4.ee-\	.	4.bb-\	.
.	.	16ff\JJ)	.	.	.	.	.	.	.	.	.	.	.	.	.	.	.	.	.	.
8f/ 8b-	.	16r	.	.	.	.	.	.	.	.	.	8D\	.	.	.	.	.	.	.	.
!	!	!LO:TX:t=P:problem=mixed beam	!	!	!	!	!	!	!	!	!	!	!	!	!	!	!	!	!	!
.	.	16dd|\LL	.	.	.	.	.	.	.	.	.	.	.	.	.	.	.	.	.	.
8f/ 8b-J	.	(16ff\	.	.	.	.	.	.	.	.	.	8D\J	.	.	.	.	.	.	.	.
.	.	16a-/JJ)	.	.	.	.	.	.	.	.	.	.	.	.	.	.	.	.	.	.
8g/ 8b-L	.	(16g/LL	.	4.E-\	-bit	4.e-\	-bit	4.b-\	-bit	4.gg\	-bit	8E-\L	x 3	.	4.e-\	4.g\	4.ee-\	.	4.ccc\	.
*	*	*	*	*	*Xij	*	*	*	*Xij	*	*Xij	*	*	*	*	*	*	*	*	*
.	.	16b-/JJ)	.	.	.	.	.	.	.	.	.	.	.	.	.	.	.	.	.	.
8g/ 8b-	.	16r	.	.	.	.	.	.	.	.	.	8E-\	.	.	.	.	.	.	.	.
.	.	16ee-|\LL	.	.	.	.	.	.	.	.	.	.	.	.	.	.	.	.	.	.
8g/ 8b-J	.	(16gg\	.	.	.	.	.	.	.	.	.	8E-\J	.	.	.	.	.	.	.	.
.	.	16bb-\JJ)	.	.	.	.	.	.	.	.	.	.	.	.	.	.	.	.	.	.
*Xtremolo	*	*	*	*	*	*	*	*	*	*	*	*	*	*	*	*	*	*	*	*
!LO:LB:g=original	!	!	!	!	!	!	!	!	!	!	!	!	!	!	!	!	!	!	!	!
=52	=52	=52	=52	=52	=52	=52	=52	=52	=52	=52	=52	=52	=52	=52	=52	=52	=52	=52	=52	=52
16f/LL	.	(16ff\LL	.	2.r	.	2.r	.	2.r	.	2.r	.	8A-\L	6_	.	2.r	2.r	2.r	.	2.r	.
16en/	.	16een\	.	.	.	.	.	.	.	.	.	.	.	.	.	.	.	.	.	.
(16f/	.	16ff\	.	.	.	.	.	.	.	.	.	8A-\	.	.	.	.	.	.	.	.
16g/	.	16gg\	.	.	.	.	.	.	.	.	.	.	.	.	.	.	.	.	.	.
16a-/	.	16aa-\	.	.	.	.	.	.	.	.	.	8A-\J	.	.	.	.	.	.	.	.
16b-/JJ)	.	16bb-\JJ)	.	.	.	.	.	.	.	.	.	.	.	.	.	.	.	.	.	.
(16cc/LL	.	(16ccc\LL	.	.	.	.	.	.	.	.	.	8A-\L	x	.	.	.	.	.	.	.
16b-/	.	16bb-\	.	.	.	.	.	.	.	.	.	.	.	.	.	.	.	.	.	.
16a-/	.	16aa-\	.	.	.	.	.	.	.	.	.	8A-\	.	.	.	.	.	.	.	.
16g/	.	16gg\	.	.	.	.	.	.	.	.	.	.	.	.	.	.	.	.	.	.
16f/)	.	16ff\	.	.	.	.	.	.	.	.	.	8A-\J	.	.	.	.	.	.	.	.
16e-X/JJ	.	16ee\JJ)	.	.	.	.	.	.	.	.	.	.	.	.	.	.	.	.	.	.
*	*	*	*	*	*	*	*	*	*	*	*	*Xtremolo	*	*	*	*	*	*	*	*
!	!	!	!	!	!	!	!	!	!	!	!	!LO:PB:g=original	!	!	!	!	!LO:PB:g=original	!	!	!
=53	=53	=53	=53	=53	=53	=53	=53	=53	=53	=53	=53	=53	=53	=53	=53	=53	=53	=53	=53	=53
!	!	!	!	!	!	!	!	!	!	!	!	!LO:TX:t=P:problem=mixed beam	!	!	!	!	!	!	!	!
8d/L	.	16dd|\LL	.	4BB-/	nil	4B-\	nil	4b-\	nil	4dd\	nil	8B-\L	8_ 3	.	4.BB-/	4.B-/	4gg\	.	[4.eee-\	.
.	.	16bb-|\	.	.	.	.	.	.	.	.	.	.	.	.	.	.	.	.	.	.
8d/	.	16bb-|\	.	.	.	.	.	.	.	.	.	8BB-/	_ 3	.	.	.	.	.	.	.
.	.	16dd|\	.	.	.	.	.	.	.	.	.	.	.	.	.	.	.	.	.	.
8e-/J	.	16ee-|\	.	8C/	in	8c\	in	8b-\	in	8ee-\	in	8C/J	_ 3	.	.	.	8aa-\	.	.	.
.	.	16bb-|\JJ	.	.	.	.	.	.	.	.	.	.	.	.	.	.	.	.	.	.
8f/L	.	16ff|\LL	.	4D\	ul-	4d\	ul-	4b-\	ul-	4ff\	ul-	8D\L	_ 3	.	4.BB-/	4.B-/	4bb-\	.	4.eee-\]	.
.	.	16bb-|\	.	.	.	.	.	.	.	.	.	.	.	.	.	.	.	.	.	.
8f/	.	16bb-|\	.	.	.	.	.	.	.	.	.	8D\	_ 3	.	.	.	.	.	.	.
.	.	16ff|\	.	.	.	.	.	.	.	.	.	.	.	.	.	.	.	.	.	.
8g/J	.	16gg|\	.	8E-\	-tum	8e-\	-tum	8b-\	-tum	8gg\	-tum	8E-\J	_ 3	.	.	.	8ccc\	.	.	.
.	.	16bb-|\JJ	.	.	.	.	.	.	.	.	.	.	.	.	.	.	.	.	.	.
!	!	!	!	!LO:LB:g=original	!	!	!	!LO:LB:g=original	!	!	!	!	!	!	!	!	!	!	!	!
=54	=54	=54	=54	=54	=54	=54	=54	=54	=54	=54	=54	=54	=54	=54	=54	=54	=54	=54	=54	=54
8a-/L	.	16aa-|\LL	.	4F\	re-	4f\	re-	4b-\	re-	4aa-\	re-	8F\L	_ 3	.	4.BB-/	4.B-/	4ddd\	.	[4.eee-\	.
.	.	16bb-|\	.	.	.	.	.	.	.	.	.	.	.	.	.	.	.	.	.	.
8a-/	.	16aa-|\	.	.	.	.	.	.	.	.	.	8F\	_ 3	.	.	.	.	.	.	.
.	.	16bb-|\	.	.	.	.	.	.	.	.	.	.	.	.	.	.	.	.	.	.
8g/J	.	16gg|\	.	8E-\	-ma-	8e-\	-ma-	8b-\	-ma-	8gg\	-ma-	8E-\J	_ 3	.	.	.	8ccc\	.	.	.
.	.	16bb-|\JJ	.	.	.	.	.	.	.	.	.	.	.	.	.	.	.	.	.	.
!	!	!LO:LB:g=original	!	!	!	!	!	!	!	!	!	!	!	!	!	!	!	!	!	!
8f/L	.	16ff|\LL	.	8D\L	-ne-	8d\L	-ne-	4b-\	-ne-	8ff\L	-ne-	8D\L	_ 3	.	4.BB-/	4.B-/	8bb-\L	.	4.eee-\]	.
.	.	16bb-|\	.	.	.	.	.	.	.	.	.	.	.	.	.	.	.	.	.	.
8g/	.	16gg|\	.	8E-\J	.	8e-\J	.	.	.	8gg\J	.	8E-\	_ 3	.	.	.	8ccc\	.	.	.
.	.	16bb-|\	.	.	.	.	.	.	.	.	.	.	.	.	.	.	.	.	.	.
8e-/J	.	16ee-|\	.	8C/	-bit	8c\	-bit	8b-\	-bit	8ee-\	-bit	8C\J	_ 3	.	.	.	8aa-\J	.	.	.
.	.	16bb-|\JJ	.	.	.	.	.	.	.	.	.	.	.	.	.	.	.	.	.	.
=55	=55	=55	=55	=55	=55	=55	=55	=55	=55	=55	=55	=55	=55	=55	=55	=55	=55	=55	=55	=55
8d/L	.	16dd|\LL	.	4BB-/	nil	4B-\	nil	4b-\	nil	4dd\	nil	8BB-\L	_ 3	.	4.BB-/	4.B-/	4gg\	.	[4.eee-\	.
.	.	16bb-|\	.	.	.	.	.	.	.	.	.	.	.	.	.	.	.	.	.	.
8d/	.	16bb-|\	.	.	.	.	.	.	.	.	.	8BB-\	_ 3	.	.	.	.	.	.	.
.	.	16dd|\	.	.	.	.	.	.	.	.	.	.	.	.	.	.	.	.	.	.
8e-/J	.	16ee-|\	.	8C/	in	8c\	in	8b-\	in	8ee-\	in	8C\J	_ 3	.	.	.	8aa-\	.	.	.
.	.	16bb-|\JJ	.	.	.	.	.	.	.	.	.	.	.	.	.	.	.	.	.	.
8f/L	.	16ff|\LL	.	4D\	ul-	4d\	ul-	4b-\	ul-	4ff\	ul-	8D\L	_ 3	.	4.BB-/	4.B-/	4bb-\	.	4.eee-\]	.
.	.	16bb-|\	.	.	.	.	.	.	.	.	.	.	.	.	.	.	.	.	.	.
8f/	.	16bb-|\	.	.	.	.	.	.	.	.	.	8D\	_ 3	.	.	.	.	.	.	.
.	.	16ff|\	.	.	.	.	.	.	.	.	.	.	.	.	.	.	.	.	.	.
8g/J	.	16gg|\	.	8E-\	-tum	8e-\	-tum	8b-\	-tum	8gg\	-tum	8E-\J	_ 3	.	.	.	8ccc\	.	.	.
.	.	16bb-|\JJ	.	.	.	.	.	.	.	.	.	.	.	.	.	.	.	.	.	.
=56	=56	=56	=56	=56	=56	=56	=56	=56	=56	=56	=56	=56	=56	=56	=56	=56	=56	=56	=56	=56
8a-/L	.	16aa-|\LL	.	4F\	re-	4f\	re-	4b-\	re-	4aa-\	re-	8F\L	_ 3	.	4.BB-/	4.B-/	4ddd\	.	[4.eee-\	.
.	.	16bb-|\	.	.	.	.	.	.	.	.	.	.	.	.	.	.	.	.	.	.
8a-/	.	16aa-|\	.	.	.	.	.	.	.	.	.	8F\	_ 3	.	.	.	.	.	.	.
.	.	16bb-|\	.	.	.	.	.	.	.	.	.	.	.	.	.	.	.	.	.	.
8g/J	.	16gg|\	.	8E-\	-ma-	8e-\	-ma-	8b-\	-ma-	8gg\	-ma-	8E-\J	_ 3	.	.	.	8ccc\	.	.	.
.	.	16bb-|\JJ	.	.	.	.	.	.	.	.	.	.	.	.	.	.	.	.	.	.
!	!	!	!	!	!	!LO:LB:g=original	!	!	!	!LO:LB:g=original	!	!	!	!	!	!	!	!	!	!
8f/L	.	16ff|\LL	.	8D\L	-ne-	8d\L	-ne-	4b-\	-ne-	8ff\L	-ne-	8D\L	_ 3	.	4.BB-/	4.B-/	8bb-\L	.	4.eee-\]	.
.	.	16bb-|\	.	.	.	.	.	.	.	.	.	.	.	.	.	.	.	.	.	.
8g/	.	16gg|\	.	8E-\J	.	8e-\J	.	.	.	8gg\J	.	8E-\	_ 3	.	.	.	8ccc\	.	.	.
.	.	16bb-|\	.	.	.	.	.	.	.	.	.	.	.	.	.	.	.	.	.	.
8e-/J	.	16eee-|\	.	8C/	-bit	8c\	-bit	8b-\	-bit	8ee-\	-bit	8C\J	x 3	.	.	.	8aa-\J	.	.	.
.	.	16bb-|\JJ	.	.	.	.	.	.	.	.	.	.	.	.	.	.	.	.	.	.
=57	=57	=57	=57	=57	=57	=57	=57	=57	=57	=57	=57	=57	=57	=57	=57	=57	=57	=57	=57	=57
*	*	*	*	*	*	*	*	*	*ij	*	*	*	*	*	*	*	*	*	*	*
!LO:TX:t=P:problem=mixed beam	!	!	!	!	!	!	!	!	!	!	!	!	!	!	!	!	!	!	!	!
8d|/L	.	8ff|\L	.	4BB-/	re-	4d\	re-	4b-\	re-	4ff\	re-	8BB-/L	5_ 3_	.	4B-/	4f\	4gg\	.	4bb-\	.
(8dd\	.	(8ff\	.	.	.	.	.	.	.	.	.	8BB-/	.	.	.	.	.	.	.	.
8ee-\J)	.	8gg\J)	.	8BB-/	-ma-	8e-\	-ma-	8b-\	-ma-	8gg\	-ma-	8BB-/J	6 4	.	8e-\	8g\	8aa-\	.	8ccc\	.
8dd|\L	.	8ff|\L	.	4.BB-/	-ne-	4d\	-ne-	4.b-\	-ne-	4ff\	-ne-	8BB-/L	5_ 3_	.	4B-/	4f\	4gg\	.	4bb-\	.
(8dd\	.	(8ff\	.	.	.	.	.	.	.	.	.	8BB-/	.	.	.	.	.	.	.	.
8ee-\J)	.	8gg\J)	.	.	.	8e-\	.	.	.	8gg\	.	8BB-/J	6 4	.	8e-\	8g\	8aa-\	.	8ccc\	.
!	!	!	!	!	!	!	!	!	!	!	!	!	!	!	!LO:LB:g=original	!	!	!	!	!
=58	=58	=58	=58	=58	=58	=58	=58	=58	=58	=58	=58	=58	=58	=58	=58	=58	=58	=58	=58	=58
8dd\L	.	8ff|\L	.	8BB-/	-bit	8d\	-bit	8b-\	-bit	4ff\	-bit	8BB-/L	5_ 3_	.	2.r	8f\L	8gg\L	.	8bb-\L	.
*	*	*	*	*	*	*	*	*	*Xij	*	*	*	*	*	*	*	*	*	*	*
8dd\	.	8ff|\	.	8r	.	8r	.	8r	.	.	.	8BB-/	.	.	.	8f\	8gg\	.	8bb-\	.
8dd\J	.	8ff|\J	.	8r	.	4r	.	8r	.	8r	.	8BB-/J	x x	.	.	8f\J	8gg\J	.	8bb-\J	.
4dd\	.	4ff|\	.	4r	.	.	.	4r	.	4r	.	4BB-/	.	.	.	4f\	4gg\	.	4bb-\	.
.	.	.	.	.	.	4r	.	.	.	.	.	.	.	.	.	.	.	.	.	.
8r	.	8r	.	8r	.	.	.	8r	.	8r	.	8r	.	.	.	8r	8r	.	8r	.
=59	=59	=59	=59	=59	=59	=59	=59	=59	=59	=59	=59	=59	=59	=59	=59	=59	=59	=59	=59	=59
!	!LO:DY:b:t=po	!	!LO:DY:b:t=piano.	!LO:TX:a:i:t=ſolo	!	!	!	!LO:TX:a:i:t=ſolo	!	!	!	!	!	!	!	!	!	!	!	!
!	!	!	!	!	!	!	!	!	!	!	!	!	!	!LO:DY:b:t=po	!	!	!	!	!	!
8e-/L	p	8g/L	p	4E-\	quid	2.r	.	4g\	quid	2.r	.	4E-\	.	p	2.r	2.r	8a-/L	.	8cc/L	.
8e-/	.	8g/	.	.	.	.	.	.	.	.	.	.	.	.	.	.	8a-/	.	8cc/	.
8e-/J	.	8g/J	.	8E-\	sum	.	.	8g\	sum	.	.	8r	.	.	.	.	8a-/J	.	8cc/J	.
8.g/L	.	8.b-/L	.	8.G\L	mi-	.	.	8.b-\L	mi-	.	.	4E-\	.	.	.	.	8.cc/L	.	8.ee-/L	.
16e-/K	.	16g/K	.	16E-\Jk	.	.	.	16g\Jk	.	.	.	.	.	.	.	.	16a-/K	.	16cc/K	.
8f/J	.	8a-/J	.	8F\	-ſer	.	.	8a-\	-ser	.	.	8r	.	.	.	.	8b-/J	.	8dd/J	.
!LO:LB:g=original	!	!	!	!	!	!	!	!	!	!	!	!LO:LB:g=original	!	!	!	!	!	!	!	!
=60	=60	=60	=60	=60	=60	=60	=60	=60	=60	=60	=60	=60	=60	=60	=60	=60	=60	=60	=60	=60
8d/L	.	8f/L	.	4D\	tunc	2.r	.	4f\	tunc	2.r	.	4BB-/	.	.	2.r	2.r	8g/L	.	8b-/L	.
8d/	.	8f/	.	.	.	.	.	.	.	.	.	.	.	.	.	.	8g/	.	8b-/	.
8d/J	.	8f/J	.	8D\	dic-	.	.	8f\	dic-	.	.	8r	.	.	.	.	8g/J	.	8b-/J	.
!	!	!	!	!LO:LB:g=original	!	!	!	!LO:LB:g=original	!	!	!	!	!	!	!	!	!LO:LB:g=original	!	!	!
8.f/L	.	8.a-/L	.	8.F\L	-tu-	.	.	8.a-\L	-tu-	.	.	4BB-/	.	.	.	.	8.b-/L	.	8.dd/L	.
16d/K	.	16f/K	.	16D\Jk	.	.	.	16f\Jk	.	.	.	.	.	.	.	.	16g/K	.	16b-/K	.
8e-/J	.	8g/J	.	8E-\	-rus	.	.	8g\	-rus	.	.	8r	.	.	.	.	8a-/J	.	8cc/J	.
=61	=61	=61	=61	=61	=61	=61	=61	=61	=61	=61	=61	=61	=61	=61	=61	=61	=61	=61	=61	=61
8e-/L	.	8g/L	.	8E-\L	qu-	2.r	.	(8g\L	qu-	2.r	.	8E-\	.	.	2.r	2.r	8a-/L	.	(8cc\L	.
8g/	.	8b-/	.	8G\J	em	.	.	8b-\J)	em	.	.	8r	.	.	.	.	8cc/	.	8ee-\)	.
8e-/J	.	8g/J	.	8E-\	Pat-	.	.	8g|\	Pat-	.	.	8r	.	.	.	.	8a-/J	.	8cc|\J	.
8cc/L	.	8ee-/L	.	8c\L	-ro-	.	.	(8ee-\L	-ro-	.	.	8A-\	.	.	.	.	8ff/L	.	(8aa-\L	.
8a-/	.	8cc/	.	8A-\J	.	.	.	8cc\J)	.	.	.	8r	.	.	.	.	8dd/	.	8ff\	.
8f/J	.	8a-/J	.	8F\	-num	.	.	8a-|\	-num	.	.	8r	.	.	.	.	8b-/J	.	8dd\J)	.
!	!	!LO:LB:g=original	!	!	!	!	!	!	!	!	!	!	!	!	!	!	!	!	!	!
=62	=62	=62	=62	=62	=62	=62	=62	=62	=62	=62	=62	=62	=62	=62	=62	=62	=62	=62	=62	=62
!	!	!	!	!	!	!	!	!	!	!	!	!LO:TX:t=P:problem=mixed beam	!	!	!	!	!	!	!	!
8e-/L	.	8g/L	.	8E-\L	ro-	2.r	.	(8g\L	ro-	2.r	.	8B-\L	.	.	2.r	2.r	8a-/L	.	(8cc/L	.
8f/	.	8a-/	.	8G\J	.	.	.	8a-\J)	.	.	.	8BB-/	.	.	.	.	8b-/	.	8dd/	.
8c/J	.	8f/J	.	8AA-/	-ga-	.	.	8f|\	-ga-	.	.	8BB-/J	.	.	.	.	8d/J	.	8cc/J)	.
!	!	!	!	!	!	!	!	!	!	!	!	!	!	!	!	!	!	!	!LO:TX:t=P:problem=druga połowa taktu niewidoczna	!
4.G/	.	4.e-/	.	4GG/	-tu-	.	.	4e-\	-tu-	.	.	16E-\LL	.	.	.	.	4.c/	.	4r	.
.	.	.	.	.	.	.	.	.	.	.	.	16e-\	.	.	.	.	.	.	.	.
.	.	.	.	.	.	.	.	.	.	.	.	16B-\	.	.	.	.	.	.	.	.
.	.	.	.	.	.	.	.	.	.	.	.	16G\J	.	.	.	.	.	.	.	.
.	.	.	.	8GG/	-rus	.	.	8e-\	-rus;	.	.	8E-\J	.	.	.	.	.	.	8r	.
!	!	!	!	!	!	!	!	!	!	!	!	!	!	!	!	!	!	!	!LO:LB:g=original	!
=63	=63	=63	=63	=63	=63	=63	=63	=63	=63	=63	=63	=63	=63	=63	=63	=63	=63	=63	=63	=63
!	!	!	!	!	!	!	!	!	!	!	!	!	!	!LO:DY:b:t=for	!	!	!	!	!	!
4.en/	.	4.b-/	.	4.G\	cum	2.r	.	4.b-\	cum	2.r	.	16C/LL	7_ #_	f	2.r	2.r	4.an/	.	4.ee-\	.
.	.	.	.	.	.	.	.	.	.	.	.	16BBn/	.	.	.	.	.	.	.	.
.	.	.	.	.	.	.	.	.	.	.	.	16C/	.	.	.	.	.	.	.	.
.	.	.	.	.	.	.	.	.	.	.	.	16D/	.	.	.	.	.	.	.	.
.	.	.	.	.	.	.	.	.	.	.	.	16En/	.	.	.	.	.	.	.	.
.	.	.	.	.	.	.	.	.	.	.	.	16C/JJ	.	.	.	.	.	.	.	.
4.f/	.	[4.a-/	.	[4.F\	vix	.	.	4.a-\	vix	.	.	16F\LL	5_ 3_	.	.	.	4.b-/	.	[4.dd\	.
.	.	.	.	.	.	.	.	.	.	.	.	16E\	.	.	.	.	.	.	.	.
.	.	.	.	.	.	.	.	.	.	.	.	16F\	.	.	.	.	.	.	.	.
.	.	.	.	.	.	.	.	.	.	.	.	16G\	.	.	.	.	.	.	.	.
.	.	.	.	.	.	.	.	.	.	.	.	16A-X\	.	.	.	.	.	.	.	.
.	.	.	.	.	.	.	.	.	.	.	.	16F\JJ	.	.	.	.	.	.	.	.
=64	=64	=64	=64	=64	=64	=64	=64	=64	=64	=64	=64	=64	=64	=64	=64	=64	=64	=64	=64	=64
4.d/	.	4.a-/]	.	4.F\]	Jus-	2.r	.	4.g\	Jus-	2.r	.	16BB-X/LL	x 7-_	.	2.r	2.r	4.g/	.	4.dd\]	.
.	.	.	.	.	.	.	.	.	.	.	.	16AAn/	.	.	.	.	.	.	.	.
.	.	.	.	.	.	.	.	.	.	.	.	16BB-/	.	.	.	.	.	.	.	.
.	.	.	.	.	.	.	.	.	.	.	.	16C/	.	.	.	.	.	.	.	.
.	.	.	.	.	.	.	.	.	.	.	.	16D/	.	.	.	.	.	.	.	.
.	.	.	.	.	.	.	.	.	.	.	.	16BB-/JJ	.	.	.	.	.	.	.	.
[4.e-X/	.	4.g/	.	4.E-\	-tus	.	.	4.f\	-tus	.	.	16E-\LL	5_ 3_	.	.	.	4.a--X/	.	4.cc\	.
.	.	.	.	.	.	.	.	.	.	.	.	16D\	.	.	.	.	.	.	.	.
.	.	.	.	.	.	.	.	.	.	.	.	16E-\	.	.	.	.	.	.	.	.
.	.	.	.	.	.	.	.	.	.	.	.	16F\	.	.	.	.	.	.	.	.
.	.	.	.	.	.	.	.	.	.	.	.	16G\	.	.	.	.	.	.	.	.
.	.	.	.	.	.	.	.	.	.	.	.	16E-\JJ	.	.	.	.	.	.	.	.
=65	=65	=65	=65	=65	=65	=65	=65	=65	=65	=65	=65	=65	=65	=65	=65	=65	=65	=65	=65	=65
4.e-/]	.	[4.f/	.	4.E-\	ſit	2.r	.	4.f\	ſit	2.r	.	16A-\LL	6_ 5_	.	2.r	2.r	4.a-/	.	[4.ff\	.
.	.	.	.	.	.	.	.	.	.	.	.	16G\	.	.	.	.	.	.	.	.
.	.	.	.	.	.	.	.	.	.	.	.	16A-\	.	.	.	.	.	.	.	.
.	.	.	.	.	.	.	.	.	.	.	.	16B-\	.	.	.	.	.	.	.	.
.	.	.	.	.	.	.	.	.	.	.	.	16c\	.	.	.	.	.	.	.	.
.	.	.	.	.	.	.	.	.	.	.	.	16B-\JJ	.	.	.	.	.	.	.	.
4.e-/	.	4.f/]	.	4.E-\	ſe-	.	.	4.f\	ſe-	.	.	16An\LL	.	.	.	.	4.a-/	.	4.ff\]	.
.	.	.	.	.	.	.	.	.	.	.	.	16B-\	.	.	.	.	.	.	.	.
.	.	.	.	.	.	.	.	.	.	.	.	16c\	.	.	.	.	.	.	.	.
.	.	.	.	.	.	.	.	.	.	.	.	16B-\	.	.	.	.	.	.	.	.
.	.	.	.	.	.	.	.	.	.	.	.	16A\	.	.	.	.	.	.	.	.
.	.	.	.	.	.	.	.	.	.	.	.	16F\JJ	.	.	.	.	.	.	.	.
!	!	!	!	!	!	!	!	!	!	!	!	!LO:LB:g=original	!	!	!	!	!	!	!	!
=66	=66	=66	=66	=66	=66	=66	=66	=66	=66	=66	=66	=66	=66	=66	=66	=66	=66	=66	=66	=66
4.d/	.	(4.f/	.	4.D\	-cu-	2.r	.	4.f\	-cu-	2.r	.	16B-\LL	5_ 3_	.	2.r	2.r	4.g/	.	[4.ee-\	.
.	.	.	.	.	.	.	.	.	.	.	.	16An\	.	.	.	.	.	.	.	.
.	.	.	.	.	.	.	.	.	.	.	.	16B-\	.	.	.	.	.	.	.	.
.	.	.	.	.	.	.	.	.	.	.	.	16c\	.	.	.	.	.	.	.	.
.	.	.	.	.	.	.	.	.	.	.	.	16B-\	.	.	.	.	.	.	.	.
.	.	.	.	.	.	.	.	.	.	.	.	16A-X\JJ	.	.	.	.	.	.	.	.
4.e-/	.	4.g/)	.	4.E-\	.	.	.	4.g\	.	.	.	16G\LL	x 6_	.	.	.	4.a-/	.	4.ee-\]	.
.	.	.	.	.	.	.	.	.	.	.	.	16A-X\	.	.	.	.	.	.	.	.
.	.	.	.	.	.	.	.	.	.	.	.	16G\	.	.	.	.	.	.	.	.
.	.	.	.	.	.	.	.	.	.	.	.	16F\	.	.	.	.	.	.	.	.
.	.	.	.	.	.	.	.	.	.	.	.	16E-\	.	.	.	.	.	.	.	.
.	.	.	.	.	.	.	.	.	.	.	.	16G\JJ	x	.	.	.	.	.	.	.
=67	=67	=67	=67	=67	=67	=67	=67	=67	=67	=67	=67	=67	=67	=67	=67	=67	=67	=67	=67	=67
!	!	!	!	!	!	!	!	!	!	!	!	!LO:TX:t=P:problem=mixed beam	!	!	!	!	!	!	!	!
4d/	.	4.f/	.	4E-\	.	2.r	.	4.f\	.	2.r	.	16A-\LL	6 5	.	2.r	2.r	4a-/	.	8ff\	.
.	.	.	.	.	.	.	.	.	.	.	.	16F\J	.	.	.	.	.	.	.	.
.	.	.	.	.	.	.	.	.	.	.	.	8B-\	?	.	.	.	.	.	4ee-\	.
8d/	.	.	.	8D\	.	.	.	.	.	.	.	8BB-/J	x 3	.	.	.	8a-/	.	.	.
8e-/	.	4g/	.	8E-\	rus	.	.	8e-\	rus	.	.	16E-\LL	.	.	.	.	8a-/	.	8ee-\	.
.	.	.	.	.	.	.	.	.	.	.	.	16e-\	.	.	.	.	.	.	.	.
8r	.	.	.	4r	.	.	.	8r	.	.	.	16B-\	.	.	.	.	8r	.	8r	.
.	.	.	.	.	.	.	.	.	.	.	.	16G\J	.	.	.	.	.	.	.	.
8r	.	8r	.	.	.	.	.	8r	.	.	.	8E-\J	.	.	.	.	8r	.	8r	.
!	!	!	!	!LO:LB:g=original	!	!	!	!LO:LB:g=original	!	!	!	!	!	!	!	!	!	!	!	!
=68	=68	=68	=68	=68	=68	=68	=68	=68	=68	=68	=68	=68	=68	=68	=68	=68	=68	=68	=68	=68
!LO:TX:a:i:t=T&colon;	!	!LO:TX:a:i:t=Tutti	!LO:DY:b:t=for	!	!	!LO:TX:a:i:t=Tutti	!	!LO:TX:a:i:t=Tutti	!	!	!	!	!	!	!	!LO:TX:a:i:t=Tutti	!	!	!LO:TX:a:i:t=T&colon;	!
!	!	!	!	!	!	!	!	!	!	!	!	!LO:TX:t=P:problem=mixed beam	!	!	!	!	!	!	!	!
8e-/L	.	8g/L	f	4E-\	cum	4G/	cum	4e-\	Cum	4g\	cum	8e-\L	.	.	8e-\L	8g\L	8a-/L	.	8cc/L	.
8e-/	.	8g/	.	.	.	.	.	.	.	.	.	8E-/J	.	.	8e-\	8g\	8a-/	.	8cc/	.
8e-/J	.	8g/J	.	8E-\	vix	8G/	vix	8e-\	vix	8g\	vix	8r	.	.	8e-\J	8g\J	8a-/J	.	8cc/J	.
!	!	!	!	!	!	!	!	!	!	!	!	!LO:TX:t=P:problem=mixed beam	!	!	!	!	!	!	!	!
8.g/L	.	8.b-/L	.	8.G\L	Jus-	8.B-/L	Jus-	8g\L	Jus-	8b-\L	Jus-	8e-\L	.	.	8.g\L	8.b-\L	8.cc/L	.	8.ee-/L	.
.	.	.	.	.	.	.	.	8e-\J	.	8g\J	.	8E-/J	.	.	.	.	.	.	.	.
16e-/K	.	16g/K	.	16E-\Jk	.	16G/Jk	.	.	.	.	.	.	.	.	16e-\K	16g\K	16a-/K	.	16cc/K	.
8f/J	.	8a-/J	.	8F\	-tus	8A-/	-tus	8f\	-tus	8a-\	-tus	8r	.	.	8f\J	8a-\J	8b-/J	.	8dd/J	.
=69	=69	=69	=69	=69	=69	=69	=69	=69	=69	=69	=69	=69	=69	=69	=69	=69	=69	=69	=69	=69
!	!	!	!	!	!	!	!	!	!	!	!	!LO:TX:t=P:problem=mixed beam	!	!	!	!	!	!	!	!
8d/L	.	8f/L	.	4D\	ſit	4F/	ſit	4d\	ſit	4f/	ſit	8B-\L	.	.	8B-/L	8f\L	8g/L	.	8b-/L	.
8d/	.	8f/	.	.	.	.	.	.	.	.	.	8BB-/J	.	.	8B-/	8f\	8g/	.	8b-/	.
8d/J	.	8f/J	.	8D\	ſe-	8F/	ſe-	8d\	ſe-	8f/	ſe-	8r	.	.	8B-/J	8f\J	8g/J	.	8b-/J	.
!	!	!	!	!	!	!	!	!	!	!	!	!LO:TX:t=P:problem=mixed beam	!	!	!	!	!	!	!	!
8.f/L	.	8.a-/L	.	8.F\L	-cu-	8.A-/L	-cu-	8f\L	-cu-	8.a-/L	-cu-	8B-\L	.	.	8.f\L	8.a-\L	8.cc/L	.	8.dd/L	.
.	.	.	.	.	.	.	.	8d\J	.	.	.	8BB-/J	.	.	.	.	.	.	.	.
16d/K	.	16f/K	.	16D\Jk	.	16F/Jk	.	.	.	16f/Jk	.	.	.	.	16B-\K	16f\K	16g/K	.	16cc/K	.
8e-/J	.	8g/J	.	8E-\	-rus	8G/	-rus	8e-\	-rus	8g/	-rus	8r	.	.	8e-\J	8g\J	8a-/J	.	8dd/J	.
!LO:LB:g=original	!	!	!	!	!	!	!	!	!	!	!	!	!	!	!	!LO:LB:g=original	!LO:LB:g=original	!	!	!
=70	=70	=70	=70	=70	=70	=70	=70	=70	=70	=70	=70	=70	=70	=70	=70	=70	=70	=70	=70	=70
8e-/L	.	8g/L	.	8E-\L	ſit	8G/L	ſit	8e-\L	ſit	8g\L	ſit	4.E-\	.	.	8e-\L	8g\L	8a-/L	.	8cc\L	.
8g/	.	8b-/	.	8G\J	.	8B-/J	.	8g\J	.	8b-\J	.	.	.	.	8g\	8b-\	8cc/	.	8ee-\	.
8e-/J	.	8g/J	.	8E-\	ſe-	8G/	ſe-	8e-\	ſe-	8g\	ſe-	.	.	.	8e-\J	8g\J	8a-/J	.	8cc\J	.
8cc/L	.	8ee-\L	.	8c\L	-cu-	8e-\L	-cu-	8cc\L	-cu-	8ee-\L	-cu-	4.A-\	.	.	8cc\L	(8ee-\L	8ff/L	.	8aa-\L	.
8a-/	.	8cc\	.	8A-\	.	8c\	.	8a-\	.	8cc\	.	.	.	.	8a-\	8cc\)	8dd/	.	8ff\	.
8f/J	.	8a-\J	.	8F\J	.	8A-\J	.	8f\J	.	8a-\J	.	.	.	.	8f\J	8a-|\J	8b-/J	.	8dd\J	.
!	!	!	!	!	!	!	!	!	!	!LO:LB:g=original	!	!	!	!	!	!	!	!	!	!
=71	=71	=71	=71	=71	=71	=71	=71	=71	=71	=71	=71	=71	=71	=71	=71	=71	=71	=71	=71	=71
!	!	!	!	!LO:TX:t=P:problem=mixed beam	!	!	!	!	!	!	!	!	!	!	!	!	!	!	!	!
!	!	!	!	!	!	!	!	!	!	!	!	!	!	!	!LO:TX:t=P:problem=mixed beam	!	!	!	!	!
8e-/L	.	8g/L	.	8E-\L	.	8G/L	.	8e-\L	.	8g/L	.	4B-\	6:7 4:5	.	8e-\L	(8g\L	8a-/L	.	8cc/L	.
8f/	.	8a-/	.	8F\	.	8A-/	.	8f\	.	8a-/	.	.	.	.	8f\	8a-\)	8b-/	.	8dd/	.
8A-/J	.	8f/J	.	8BB-/J	.	8F/J	.	8g\J	.	8f/J	.	8BB-/	5 3	.	8B-/J	8f|\J	8d/J	.	8b-/J	.
(16G/LL	.	8e-/L	.	8E-\	-rus.	8E-/	-rus	8g\	-rus	8e-/	-rus	8E-\	.	.	8G/	8e-|\	8c/	.	8a-/	.
16B-/	.	.	.	.	.	.	.	.	.	.	.	.	.	.	.	.	.	.	.	.
16G/)	.	8e-/J	.	8r	.	8r	.	8r	.	8r	.	8r	.	.	8r	8r	8r	.	8r	.
16B-/	.	.	.	.	.	.	.	.	.	.	.	.	.	.	.	.	.	.	.	.
16A-/	.	32g/LLL	.	8r	.	8r	.	8r	.	8r	.	8BB-/	.	.	8B-/	8f|\	8dd\	.	8bb-\	.
.	.	32f/	.	.	.	.	.	.	.	.	.	.	.	.	.	.	.	.	.	.
16B-/JJ	.	32e-/	.	.	.	.	.	.	.	.	.	.	.	.	.	.	.	.	.	.
.	.	32f/JJJ	.	.	.	.	.	.	.	.	.	.	.	.	.	.	.	.	.	.
=72	=72	=72	=72	=72	=72	=72	=72	=72	=72	=72	=72	=72	=72	=72	=72	=72	=72	=72	=72	=72
16G/LL	.	8e-/L	.	2.r	.	2.r	.	2.r	.	2.r	.	8E-\	.	.	8G/	8e-\	8cc\	.	8aa-\	.
16B-/	.	.	.	.	.	.	.	.	.	.	.	.	.	.	.	.	.	.	.	.
16G/	.	8e-/J	.	.	.	.	.	.	.	.	.	8r	.	.	8r	8r	8r	.	8r	.
16B-/	.	.	.	.	.	.	.	.	.	.	.	.	.	.	.	.	.	.	.	.
16A-/	.	32g/LLL	.	.	.	.	.	.	.	.	.	8BB-/	.	.	8B-/	8f|\	8dd\	.	8bb-\	.
.	.	32f/	.	.	.	.	.	.	.	.	.	.	.	.	.	.	.	.	.	.
16B-/JJ	.	32e-/	.	.	.	.	.	.	.	.	.	.	.	.	.	.	.	.	.	.
.	.	32f/JJJ	.	.	.	.	.	.	.	.	.	.	.	.	.	.	.	.	.	.
16G/LL	.	8e-/L	.	.	.	.	.	.	.	.	.	8E-\L	.	.	8G/L	8e-|\L	8cc\L	.	8aa-\L	.
16B-/	.	.	.	.	.	.	.	.	.	.	.	.	.	.	.	.	.	.	.	.
16G/	.	8e-/	.	.	.	.	.	.	.	.	.	8E-\	.	.	8G/	8e-|\	8cc\	.	8aa-\	.
16B-/	.	.	.	.	.	.	.	.	.	.	.	.	.	.	.	.	.	.	.	.
16A-/	.	8e-/J	.	.	.	.	.	.	.	.	.	8E-\J	.	.	8G/J	8e-|\J	8cc\J	.	8aa-\J	.
16B-/JJ	.	.	.	.	.	.	.	.	.	.	.	.	.	.	.	.	.	.	.	.
=73	=73	=73	=73	=73	=73	=73	=73	=73	=73	=73	=73	=73	=73	=73	=73	=73	=73	=73	=73	=73
4G/	.	4e-/	.	2.r	.	2.r	.	2.r	.	2.r	.	4E-\	.	.	4G/	4e-|\	4cc\	.	4aa-\	.
8r	.	8r	.	.	.	.	.	.	.	.	.	8r	.	.	8r	8r	8r	.	8r	.
4r	.	4r	.	.	.	.	.	.	.	.	.	4r	.	.	4r	4r	4r	.	4r	.
8r	.	8r	.	.	.	.	.	.	.	.	.	8r	.	.	8r	8r	8r	.	8r	.
==	==	==	==	==	==	==	==	==	==	==	==	==	==	==	==	==	==	==	==	==
*-	*-	*-	*-	*-	*-	*-	*-	*-	*-	*-	*-	*-	*-	*-	*-	*-	*-	*-	*-	*-
!!!RDF**kern: | = vertical stroke
!!!RDF**kern: > = above
!!!RDF**kern: < = below
!!!system-decoration: [(s1,s2)][(s3,s4)]s5[(s6,s7,s8,s9)][([(s10,s11)])]
!!!AIN: 1 alto 2 clars 1 cor 2 empty 1 organ 1 tenor 2 violn 1 vox
!!!ENC: Tomasz Grochalski
!!!END: 2020.09.07
!!!ENC: Urszula Świątek
!!!END: 2022.01.26
